(23356BBA02-1)
(Heater Block Mount)
(Machine)
(  vendor: Nikodem Bartnik)
(  model: Generic 3-axis Router)
(  description: This machine has XYZ axis on the Head)
(T1 D=3.175 CR=0 - ZMIN=-14 - flat end mill)
G90 G94
G17
G21
(-Attention- Property Safe Retracts is set to Clearance Height.)
(Ensure the clearance height will clear the part and or fixtures.)
(Raise the Z-axis to a safe height before starting the program.)
(When using Fusion 360 for Personal Use, the feedrate of)
(rapid moves is reduced to match the feedrate of cutting)
(moves, which can increase machining time. Unrestricted rapid)
(moves are available with a Fusion 360 Subscription.)

(Adaptive3)
T1
S5000 M3
G17 G90 G94
G54
G0 X-3.097 Y3.863
Z6
G1 Z3 F50
Z-0.365
Z-0.682 F20
X-3.09 Y3.868 Z-0.753
X-3.072 Y3.882 Z-0.82
X-3.042 Y3.905 Z-0.88
X-3.002 Y3.936 Z-0.931
X-2.954 Y3.973 Z-0.969
X-2.901 Y4.014 Z-0.992
X-2.845 Y4.057 Z-1
G3 X-1.586 Y5.267 I-4.954 J6.416
G1 X-1.518 Y5.353 F50
X-1.357 Y5.521
X-1.31 Y5.56
X-1.2 Y5.663
X-1.108 Y5.781
X-1.013 Y5.926
X-0.912 Y6.113
X-0.805 Y6.356
X-0.693 Y6.678
X-0.576 Y7.127
X-0.455 Y7.811
X-0.386 Y8.546
X-0.35 Y9.283
X-0.331 Y10.02
X-0.32 Y10.758
X-0.315 Y11.496
X-0.312 Y12.234
X-0.309 Y13.709
X-0.304 Y22.563
X-0.301 Y29.409
X-0.331 Y29.616
X-0.418 Y29.808
X-0.554 Y29.967
X-0.73 Y30.081
G3 X-1.132 Y29.635 I-0.124 J-0.292
G1 X-1.098 Y29.574 Z-0.992
X-1.065 Y29.515 Z-0.969
X-1.036 Y29.462 Z-0.931
X-1.012 Y29.418 Z-0.88
X-0.994 Y29.385 Z-0.82
X-0.983 Y29.364 Z-0.753
X-0.979 Y29.357 Z-0.682
Z3
X-2.162 Y5.273
Z-0.365
Z-0.682 F20
X-2.155 Y5.274 Z-0.753
X-2.131 Y5.278 Z-0.82
X-2.094 Y5.284 Z-0.88
X-2.045 Y5.292 Z-0.931
X-1.985 Y5.302 Z-0.969
X-1.919 Y5.313 Z-0.992
X-1.849 Y5.324 Z-1
G3 X-1.31 Y5.56 I-0.191 J1.171
G1 X-1.2 Y5.652 F50
X-1.154 Y5.688
X-1.033 Y5.767
X-0.866 Y5.856
X-0.699 Y5.932
X-0.562 Y5.994
X-0.436 Y6.075
X-0.319 Y6.169
X-0.208 Y6.276
X-0.085 Y6.417
X0.038 Y6.582
X0.16 Y6.778
X0.294 Y7.036
X0.425 Y7.346
X0.561 Y7.76
X0.695 Y8.312
X0.81 Y9.041
X0.876 Y9.776
X0.913 Y10.512
X0.934 Y11.25
X0.946 Y11.988
X0.953 Y12.725
X0.957 Y13.463
X0.961 Y14.939
X0.964 Y18.628
X0.968 Y28.22
X0.957 Y28.7
X0.923 Y29.026
X0.878 Y29.268
X0.851 Y29.368
X0.777 Y29.545
X0.66 Y29.698
X0.508 Y29.815
X0.332 Y29.889
X0.142 Y29.915
X-0.03 Y29.917
X-0.197 Y29.936
X-0.364 Y29.966
X-0.532 Y30.007
X-0.699 Y30.066
X-0.73 Y30.081
G3 X-1.132 Y29.635 I-0.124 J-0.292
G1 X-1.098 Y29.574 Z-0.992
X-1.065 Y29.515 Z-0.969
X-1.036 Y29.462 Z-0.931
X-1.012 Y29.418 Z-0.88
X-0.994 Y29.385 Z-0.82
X-0.983 Y29.364 Z-0.753
X-0.979 Y29.357 Z-0.682
Z3
X-1.795 Y5.942
Z-0.365
Z-0.682 F20
X-1.787 Y5.941 Z-0.753
X-1.764 Y5.936 Z-0.82
X-1.726 Y5.929 Z-0.88
X-1.677 Y5.92 Z-0.931
X-1.618 Y5.909 Z-0.969
X-1.552 Y5.896 Z-0.992
X-1.483 Y5.883 Z-1
G3 X-0.699 Y5.932 I0.296 J1.555
G1 X-0.532 Y5.993 F50
X-0.364 Y6.034
X-0.197 Y6.064
X-0.03 Y6.083
X0.119 Y6.1
X0.261 Y6.148
X0.397 Y6.212
X0.525 Y6.289
X0.651 Y6.382
X0.787 Y6.5
X0.92 Y6.635
X1.071 Y6.815
X1.217 Y7.021
X1.368 Y7.276
X1.53 Y7.606
X1.679 Y7.985
X1.833 Y8.492
X1.984 Y9.185
X2.082 Y9.917
X2.142 Y10.652
X2.178 Y11.389
X2.2 Y12.126
X2.213 Y12.864
X2.221 Y13.602
X2.226 Y14.34
X2.229 Y15.077
X2.232 Y16.553
X2.235 Y21.718
X2.238 Y26.882
X2.236 Y27.62
X2.214 Y28.297
X2.168 Y28.699
X2.114 Y28.977
X2.042 Y29.233
X1.969 Y29.431
X1.944 Y29.483
X1.83 Y29.659
X1.671 Y29.796
X1.48 Y29.883
X1.272 Y29.913
X0.471
X0.142 Y29.915
Z3
X-1.06 Y6.459
Z-0.365
Z-0.682 F20
X-1.053 Y6.455 Z-0.753
X-1.032 Y6.443 Z-0.82
X-1 Y6.424 Z-0.88
X-0.956 Y6.398 Z-0.931
X-0.904 Y6.368 Z-0.969
X-0.846 Y6.334 Z-0.992
X-0.785 Y6.299 Z-1
G3 X-0.03 Y6.083 I0.798 J1.367
G1 X0.471 Y6.087 F50
X0.731 Y6.088
X0.88 Y6.095
X1.028 Y6.12
X1.172 Y6.163
X1.311 Y6.22
X1.445 Y6.29
X1.587 Y6.38
X1.735 Y6.491
X1.895 Y6.633
X2.052 Y6.797
X2.229 Y7.013
X2.392 Y7.249
X2.578 Y7.572
X2.746 Y7.925
X2.926 Y8.397
X3.092 Y8.968
X3.241 Y9.691
X3.337 Y10.422
X3.398 Y11.157
X3.438 Y11.894
X3.462 Y12.632
X3.478 Y13.369
X3.487 Y14.107
X3.494 Y14.845
X3.497 Y15.583
X3.501 Y17.058
X3.504 Y20.009
X3.507 Y25.912
Y26.65
X3.498 Y27.388
X3.462 Y28.071
X3.395 Y28.579
X3.321 Y28.919
X3.235 Y29.206
X3.152 Y29.42
X3.114 Y29.496
X2.999 Y29.667
X2.841 Y29.8
X2.653 Y29.884
X2.448 Y29.913
X1.272
G3 X1.096 Y29.339 I0.011 J-0.317
G1 X1.153 Y29.297 Z-0.992
X1.207 Y29.258 Z-0.969
X1.255 Y29.222 Z-0.931
X1.296 Y29.192 Z-0.88
X1.326 Y29.17 Z-0.82
X1.345 Y29.156 Z-0.753
X1.352 Y29.151 Z-0.682
Z3
X-0.296 Y6.471
Z-0.365
Z-0.682 F20
X-0.289 Y6.467 Z-0.753
X-0.269 Y6.455 Z-0.82
X-0.236 Y6.436 Z-0.88
X-0.193 Y6.41 Z-0.931
X-0.141 Y6.379 Z-0.969
X-0.084 Y6.345 Z-0.992
X-0.023 Y6.309 Z-1
G3 X0.731 Y6.088 I0.809 J1.36
G1 X1.734 F50
X1.883 Y6.095
X2.032 Y6.118
X2.176 Y6.158
X2.316 Y6.212
X2.465 Y6.284
X2.613 Y6.371
X2.779 Y6.488
X2.943 Y6.625
X3.123 Y6.801
X3.306 Y7.01
X3.496 Y7.269
X3.687 Y7.575
X3.884 Y7.957
X4.071 Y8.408
X4.26 Y8.988
X4.432 Y9.706
X4.548 Y10.434
X4.626 Y11.168
X4.677 Y11.904
X4.711 Y12.641
X4.734 Y13.379
X4.748 Y14.116
X4.757 Y14.854
X4.763 Y15.592
X4.767 Y16.33
X4.771 Y17.805
X4.775 Y20.757
X4.777 Y25.183
X4.776 Y25.921
X4.771 Y26.659
X4.749 Y27.397
X4.689 Y28.106
X4.603 Y28.623
X4.514 Y28.977
X4.418 Y29.261
X4.324 Y29.479
X4.304 Y29.518
X4.187 Y29.681
X4.031 Y29.806
X3.847 Y29.885
X3.649 Y29.913
X2.448
G3 X2.272 Y29.339 I0.011 J-0.317
G1 X2.329 Y29.297 Z-0.992
X2.383 Y29.258 Z-0.969
X2.431 Y29.222 Z-0.931
X2.472 Y29.192 Z-0.88
X2.502 Y29.17 Z-0.82
X2.521 Y29.156 Z-0.753
X2.528 Y29.151 Z-0.682
Z3
X0.707 Y6.471
Z-0.365
Z-0.682 F20
X0.714 Y6.467 Z-0.753
X0.734 Y6.455 Z-0.82
X0.767 Y6.436 Z-0.88
X0.81 Y6.41 Z-0.931
X0.862 Y6.379 Z-0.969
X0.919 Y6.345 Z-0.992
X0.98 Y6.309 Z-1
G3 X1.734 Y6.088 I0.809 J1.36
G1 X2.812 F50
X2.962 Y6.095
X3.11 Y6.118
X3.255 Y6.157
X3.395 Y6.209
X3.551 Y6.282
X3.704 Y6.37
X3.879 Y6.489
X4.054 Y6.63
X4.246 Y6.812
X4.436 Y7.025
X4.642 Y7.295
X4.843 Y7.608
X5.06 Y8.015
X5.257 Y8.469
X5.459 Y9.061
X5.641 Y9.776
X5.769 Y10.503
X5.858 Y11.235
X5.919 Y11.971
X5.961 Y12.707
X5.989 Y13.445
X6.008 Y14.182
X6.02 Y14.92
X6.029 Y15.658
X6.034 Y16.396
X6.038 Y17.133
X6.042 Y18.609
X6.045 Y21.56
X6.046 Y24.511
Y25.249
X6.042 Y25.987
X6.028 Y26.725
X5.99 Y27.462
X5.913 Y28.16
X5.81 Y28.69
X5.714 Y29.037
X5.612 Y29.315
X5.51 Y29.535
X5.393 Y29.691
X5.239 Y29.811
X5.058 Y29.887
X4.864 Y29.913
X3.649
G3 X3.472 Y29.339 I0.011 J-0.317
G1 X3.529 Y29.297 Z-0.992
X3.583 Y29.258 Z-0.969
X3.632 Y29.222 Z-0.931
X3.672 Y29.192 Z-0.88
X3.703 Y29.17 Z-0.82
X3.722 Y29.156 Z-0.753
X3.728 Y29.151 Z-0.682
Z3
X1.785 Y6.471
Z-0.365
Z-0.682 F20
X1.792 Y6.467 Z-0.753
X1.812 Y6.455 Z-0.82
X1.845 Y6.436 Z-0.88
X1.888 Y6.41 Z-0.931
X1.94 Y6.379 Z-0.969
X1.997 Y6.345 Z-0.992
X2.058 Y6.309 Z-1
G3 X2.812 Y6.088 I0.809 J1.36
G1 X3.907 F50
X4.057 Y6.095
X4.205 Y6.115
X4.351 Y6.152
X4.492 Y6.201
X4.648 Y6.269
X4.808 Y6.356
X4.983 Y6.47
X5.17 Y6.615
X5.362 Y6.789
X5.566 Y7.007
X5.773 Y7.267
X5.99 Y7.59
X6.209 Y7.98
X6.424 Y8.447
X6.64 Y9.037
X6.837 Y9.748
X6.98 Y10.472
X7.081 Y11.203
X7.154 Y11.937
X7.205 Y12.673
X7.24 Y13.41
X7.264 Y14.147
X7.281 Y14.885
X7.292 Y15.623
X7.299 Y16.361
X7.305 Y17.098
X7.308 Y17.836
X7.312 Y19.312
X7.315 Y22.263
X7.316 Y24.476
X7.314 Y25.214
X7.306 Y25.952
X7.284 Y26.69
X7.235 Y27.426
X7.15 Y28.135
X7.037 Y28.697
X6.936 Y29.046
X6.829 Y29.33
X6.754 Y29.49
X6.636 Y29.668
X6.473 Y29.804
X6.277 Y29.889
X6.066 Y29.914
X5.988 Y29.913
X4.864
G3 X4.688 Y29.339 I0.011 J-0.317
G1 X4.745 Y29.297 Z-0.992
X4.799 Y29.258 Z-0.969
X4.847 Y29.222 Z-0.931
X4.888 Y29.192 Z-0.88
X4.918 Y29.17 Z-0.82
X4.937 Y29.156 Z-0.753
X4.944 Y29.151 Z-0.682
Z3
X2.88 Y6.471
Z-0.365
Z-0.682 F20
X2.887 Y6.467 Z-0.753
X2.907 Y6.455 Z-0.82
X2.94 Y6.436 Z-0.88
X2.983 Y6.41 Z-0.931
X3.035 Y6.379 Z-0.969
X3.092 Y6.345 Z-0.992
X3.153 Y6.309 Z-1
G3 X3.907 Y6.088 I0.809 J1.36
G1 X5.077 F50
X5.227 Y6.095
X5.375 Y6.118
X5.52 Y6.157
X5.661 Y6.207
X5.826 Y6.282
X5.988 Y6.371
X6.176 Y6.495
X6.361 Y6.641
X6.568 Y6.832
X6.772 Y7.054
X6.999 Y7.343
X7.215 Y7.67
X7.457 Y8.109
X7.671 Y8.585
X7.894 Y9.207
X8.085 Y9.92
X8.226 Y10.644
X8.33 Y11.374
X8.405 Y12.108
X8.459 Y12.844
X8.498 Y13.581
X8.525 Y14.318
X8.544 Y15.056
X8.557 Y15.794
X8.566 Y16.531
X8.572 Y17.269
X8.576 Y18.007
X8.581 Y19.483
X8.584 Y21.696
X8.585 Y23.91
X8.583 Y24.647
X8.576 Y25.385
X8.559 Y26.123
X8.524 Y26.86
X8.462 Y27.595
X8.36 Y28.289
X8.245 Y28.787
X8.132 Y29.143
X8.033 Y29.386
X7.918 Y29.615
X7.808 Y29.794
X7.793 Y29.815
X7.662 Y29.954
X7.5 Y30.054
X7.318 Y30.11
X7.127 Y30.118
X6.941 Y30.076
X6.824 Y30.034
X6.657 Y29.986
X6.575 Y29.966
X6.322 Y29.926
X6.155 Y29.917
X6.066 Y29.914
G3 X5.903 Y29.337 I0.019 J-0.317
G1 X5.961 Y29.297 Z-0.992
X6.016 Y29.258 Z-0.969
X6.066 Y29.224 Z-0.931
X6.107 Y29.195 Z-0.88
X6.138 Y29.174 Z-0.82
X6.157 Y29.16 Z-0.753
X6.164 Y29.156 Z-0.682
Z3
X4.05 Y6.471
Z-0.365
Z-0.682 F20
X4.057 Y6.467 Z-0.753
X4.077 Y6.455 Z-0.82
X4.11 Y6.436 Z-0.88
X4.153 Y6.41 Z-0.931
X4.205 Y6.379 Z-0.969
X4.263 Y6.345 Z-0.992
X4.323 Y6.309 Z-1
G3 X5.077 Y6.088 I0.809 J1.36
G1 X5.988 Y6.087 F50
X6.155 Y6.083
X6.206 Y6.08
X6.356 Y6.079
X6.504 Y6.1
X6.65 Y6.136
X6.797 Y6.185
X6.954 Y6.253
X7.129 Y6.346
X7.306 Y6.459
X7.511 Y6.614
X7.708 Y6.79
X7.933 Y7.025
X8.146 Y7.287
X8.386 Y7.638
X8.613 Y8.033
X8.848 Y8.532
X9.083 Y9.155
X9.287 Y9.865
X9.44 Y10.586
X9.554 Y11.315
X9.639 Y12.048
X9.701 Y12.783
X9.746 Y13.52
X9.778 Y14.257
X9.801 Y14.994
X9.818 Y15.732
X9.829 Y16.47
X9.837 Y17.208
X9.843 Y17.945
X9.847 Y18.683
X9.852 Y20.159
X9.855 Y22.372
Y23.11
X9.854 Y23.848
X9.85 Y24.586
X9.84 Y25.323
X9.819 Y26.061
X9.779 Y26.798
X9.711 Y27.532
X9.605 Y28.247
X9.478 Y28.798
X9.342 Y29.227
X9.219 Y29.528
X9.096 Y29.773
X8.975 Y29.97
X8.847 Y30.146
X8.726 Y30.288
X8.587 Y30.426
X8.561 Y30.447
X8.385 Y30.559
X8.186 Y30.619
X7.978 Y30.623
X7.776 Y30.572
X7.596 Y30.468
X7.492 Y30.388
X7.325 Y30.267
X7.078 Y30.133
X6.991 Y30.094
X6.941 Y30.076
G3 X6.97 Y29.477 I0.119 J-0.294
G1 X7.038 Y29.457 Z-0.992
X7.103 Y29.438 Z-0.969
X7.16 Y29.421 Z-0.931
X7.209 Y29.407 Z-0.88
X7.245 Y29.397 Z-0.82
X7.268 Y29.39 Z-0.753
X7.275 Y29.388 Z-0.682
Z3
X5.203 Y6.522
Z-0.365
Z-0.682 F20
X5.209 Y6.517 Z-0.753
X5.229 Y6.504 Z-0.82
X5.26 Y6.483 Z-0.88
X5.302 Y6.455 Z-0.931
X5.352 Y6.421 Z-0.969
X5.407 Y6.384 Z-0.992
X5.466 Y6.344 Z-1
G3 X6.206 Y6.08 I0.885 J1.312
G1 X6.322 Y6.074 F50
X6.489 Y6.048
X6.62 Y6.023
X6.824 Y5.968
X6.852 Y5.957
X6.994 Y5.909
X7.142 Y5.886
X7.292 Y5.883
X7.441 Y5.897
X7.589 Y5.925
X7.739 Y5.967
X7.908 Y6.028
X8.081 Y6.108
X8.28 Y6.219
X8.475 Y6.35
X8.696 Y6.526
X8.912 Y6.728
X9.152 Y6.991
X9.39 Y7.3
X9.639 Y7.681
X9.901 Y8.163
X10.138 Y8.698
X10.381 Y9.393
X10.569 Y10.107
X10.712 Y10.831
X10.82 Y11.561
X10.902 Y12.294
X10.964 Y13.029
X11.009 Y13.766
X11.042 Y14.503
X11.066 Y15.24
X11.084 Y15.978
X11.096 Y16.715
X11.105 Y17.453
X11.111 Y18.191
X11.116 Y18.929
X11.121 Y20.404
X11.124 Y21.88
Y22.618
X11.123 Y23.356
X11.12 Y24.093
X11.111 Y24.831
X11.093 Y25.569
X11.061 Y26.306
X11.007 Y27.042
X10.924 Y27.775
X10.797 Y28.491
X10.651 Y29.049
X10.495 Y29.496
X10.326 Y29.876
X10.152 Y30.198
X9.997 Y30.435
X9.831 Y30.65
X9.689 Y30.806
X9.528 Y30.957
X9.382 Y31.073
X9.235 Y31.172
X9.074 Y31.262
X8.986 Y31.303
X8.772 Y31.364
X8.549 Y31.359
X8.337 Y31.288
X8.156 Y31.157
X8.023 Y30.978
G3 X8.446 Y30.552 I0.285 J-0.14
G1 X8.509 Y30.583 Z-0.992
X8.57 Y30.612 Z-0.969
X8.624 Y30.638 Z-0.931
X8.669 Y30.66 Z-0.88
X8.703 Y30.676 Z-0.82
X8.725 Y30.687 Z-0.753
X8.732 Y30.69 Z-0.682
Z3
X6.036 Y6.688
Z-0.365
Z-0.682 F20
X6.041 Y6.682 Z-0.753
X6.055 Y6.663 Z-0.82
X6.078 Y6.633 Z-0.88
X6.109 Y6.594 Z-0.931
X6.146 Y6.546 Z-0.969
X6.187 Y6.493 Z-0.992
X6.231 Y6.438 Z-1
G3 X6.852 Y5.957 I1.249 J0.972
G1 X6.991 Y5.902 F50
X7.102 Y5.856
X7.158 Y5.827
X7.325 Y5.731
X7.394 Y5.688
X7.424 Y5.666
X7.549 Y5.583
X7.69 Y5.531
X7.836 Y5.499
X7.985 Y5.484
X8.135
X8.285 Y5.497
X8.452 Y5.527
X8.621 Y5.57
X8.817 Y5.638
X9.012 Y5.724
X9.234 Y5.843
X9.455 Y5.986
X9.698 Y6.172
X9.948 Y6.398
X10.207 Y6.673
X10.487 Y7.022
X10.744 Y7.402
X11.022 Y7.895
X11.296 Y8.485
X11.552 Y9.177
X11.752 Y9.887
X11.909 Y10.608
X12.03 Y11.336
X12.123 Y12.068
X12.194 Y12.802
X12.247 Y13.538
X12.288 Y14.275
X12.317 Y15.012
X12.339 Y15.75
X12.355 Y16.487
X12.367 Y17.225
X12.375 Y17.963
X12.381 Y18.7
X12.386 Y19.438
X12.391 Y20.914
X12.393 Y22.389
X12.392 Y23.127
X12.388 Y23.865
X12.378 Y24.603
X12.359 Y25.34
X12.327 Y26.078
X12.276 Y26.814
X12.198 Y27.547
X12.083 Y28.276
X11.924 Y28.975
X11.747 Y29.539
X11.553 Y30.02
X11.344 Y30.436
X11.137 Y30.778
X10.921 Y31.077
X10.699 Y31.338
X10.482 Y31.554
X10.282 Y31.725
X10.082 Y31.869
X9.914 Y31.97
X9.727 Y32.064
X9.556 Y32.133
X9.401 Y32.181
X9.226 Y32.221
X9.083 Y32.241
X8.86 Y32.238
X8.649 Y32.167
X8.47 Y32.034
X8.341 Y31.852
X8.273 Y31.64
X8.235 Y31.472
X8.183 Y31.305
X8.161 Y31.253
X8.108 Y31.138
X8.023 Y30.978
G3 X8.446 Y30.552 I0.285 J-0.14
G1 X8.509 Y30.583 Z-0.992
X8.57 Y30.612 Z-0.969
X8.624 Y30.638 Z-0.931
X8.669 Y30.66 Z-0.88
X8.703 Y30.676 Z-0.82
X8.725 Y30.687 Z-0.753
X8.732 Y30.69 Z-0.682
Z3
X6.825 Y6.584
Z-0.365
Z-0.682 F20
X6.828 Y6.576 Z-0.753
X6.837 Y6.555 Z-0.82
X6.852 Y6.52 Z-0.88
X6.871 Y6.474 Z-0.931
X6.895 Y6.418 Z-0.969
X6.921 Y6.356 Z-0.992
X6.948 Y6.291 Z-1
G3 X7.424 Y5.666 I1.458 J0.616
G1 X7.492 Y5.616 F50
X7.607 Y5.521
X7.66 Y5.471
X7.779 Y5.353
X7.827 Y5.296
X7.928 Y5.185
X8.051 Y5.099
X8.185 Y5.033
X8.327 Y4.984
X8.473 Y4.951
X8.622 Y4.932
X8.78 Y4.926
X8.942 Y4.932
X9.131 Y4.955
X9.322 Y4.995
X9.539 Y5.057
X9.762 Y5.142
X10.002 Y5.256
X10.263 Y5.407
X10.524 Y5.586
X10.808 Y5.818
X11.095 Y6.093
X11.386 Y6.42
X11.7 Y6.837
X12.003 Y7.315
X12.296 Y7.87
X12.587 Y8.549
X12.822 Y9.248
X13.012 Y9.961
X13.163 Y10.683
X13.282 Y11.411
X13.375 Y12.143
X13.448 Y12.877
X13.503 Y13.613
X13.546 Y14.35
X13.578 Y15.087
X13.602 Y15.824
X13.619 Y16.562
X13.632 Y17.299
X13.642 Y18.037
X13.649 Y18.775
X13.654 Y19.513
X13.657 Y20.251
X13.66 Y20.988
X13.661 Y21.726
Y22.464
X13.659 Y23.202
X13.652 Y23.94
X13.639 Y24.677
X13.615 Y25.415
X13.578 Y26.152
X13.521 Y26.887
X13.437 Y27.62
X13.318 Y28.348
X13.156 Y29.068
X12.96 Y29.719
X12.852 Y29.994
X12.788 Y30.12
X12.701 Y30.232
X12.595 Y30.325
X12.508 Y30.388
X12.404 Y30.468
X12.34 Y30.526
X12.236 Y30.635
X12.173 Y30.707
X12.092 Y30.803
X11.981 Y30.97
X11.892 Y31.138
X11.839 Y31.253
X11.72 Y31.503
X11.591 Y31.726
X11.441 Y31.943
X11.273 Y32.148
X11.086 Y32.343
X10.886 Y32.52
X10.675 Y32.679
X10.456 Y32.818
X10.253 Y32.924
X10.034 Y33.018
X9.849 Y33.08
X9.675 Y33.123
X9.486 Y33.154
X9.323 Y33.167
X9.171 Y33.168
X9.003 Y33.154
X8.934 Y33.143
X8.735 Y33.082
X8.561 Y32.967
X8.426 Y32.808
X8.34 Y32.618
X8.311 Y32.412
Y32.142
X8.308 Y31.975
X8.299 Y31.807
X8.273 Y31.64
G3 X8.54 Y31.29 Z-0.805 I0.315 J-0.037
G1 X8.552 Y31.288 Z-0.8
X8.797 Y31.249
X11.409 Y30.841
X11.493 Y30.828 F20
X11.547 Y30.824
X11.601 Y30.829
X11.653 Y30.844
G3 X11.839 Y31.253 Z-1 I-0.112 J0.297
G1 X11.817 Y31.305 F50
X11.765 Y31.472
X11.727 Y31.64
X11.701 Y31.807
X11.692 Y31.975
X11.689 Y32.142
X11.682 Y32.292
X11.655 Y32.44
X11.613 Y32.584
X11.557 Y32.723
X11.487 Y32.861
X11.403 Y32.998
X11.298 Y33.142
X11.175 Y33.285
X11.037 Y33.421
X10.884 Y33.55
X10.713 Y33.672
X10.528 Y33.782
X10.334 Y33.878
X10.129 Y33.959
X9.932 Y34.02
X9.736 Y34.063
X9.545 Y34.089
X9.381 Y34.098
X9.204 Y34.094
X9.04 Y34.077
X8.893 Y34.05
X8.856 Y34.04
X8.678 Y33.965
X8.526 Y33.847
X8.409 Y33.694
X8.336 Y33.516
X8.311 Y33.325
Y32.412
G3 X8.597 Y32.107 Z-0.817 I0.317 J0.011
G1 X8.639 Y32.103 Z-0.8
X8.886 Y32.079
X11.114 Y31.86
X11.341 Y31.837 F20
X11.361 Y31.836
G3 X11.689 Y32.142 Z-1 I0.011 J0.317
G1 Y33.147 F50
X11.682 Y33.297
X11.658 Y33.445
X11.617 Y33.589
X11.561 Y33.728
X11.492 Y33.861
X11.412 Y33.99
X11.314 Y34.121
X11.197 Y34.254
X11.064 Y34.382
X10.916 Y34.504
X10.75 Y34.62
X10.57 Y34.725
X10.376 Y34.818
X10.172 Y34.897
X9.961 Y34.959
X9.764 Y35
X9.568 Y35.025
X9.381 Y35.034
X9.217 Y35.028
X9.041 Y35.008
X8.887 Y34.977
X8.85 Y34.967
X8.674 Y34.891
X8.523 Y34.774
X8.408 Y34.621
X8.335 Y34.444
X8.311 Y34.254
Y33.325
G3 X8.607 Y33.019 Z-0.813 I0.317 J0.011
G1 X8.639 Y33.017 Z-0.8
X8.887 Y33.001
X11.113 Y32.856
X11.351 Y32.841 F20
X11.361
G3 X11.689 Y33.147 Z-1 I0.011 J0.317
G1 Y34.151 F50
X11.682 Y34.301
X11.654 Y34.449
X11.609 Y34.592
X11.549 Y34.729
X11.476 Y34.86
X11.39 Y34.99
X11.29 Y35.115
X11.17 Y35.243
X11.031 Y35.369
X10.877 Y35.488
X10.709 Y35.597
X10.524 Y35.698
X10.328 Y35.784
X10.12 Y35.857
X9.904 Y35.913
X9.709 Y35.948
X9.507 Y35.967
X9.326 Y35.97
X9.159 Y35.959
X8.985 Y35.933
X8.837 Y35.899
X8.828 Y35.896
X8.619 Y35.792
X8.454 Y35.628
X8.347 Y35.42
X8.311 Y35.19
Y34.254
G3 X8.616 Y33.948 Z-0.809 I0.317 J0.011
G1 X8.639 Y33.947 Z-0.8
X8.887 Y33.938
X11.113 Y33.854
X11.36 Y33.845 F20
X11.361
G3 X11.689 Y34.151 Z-1 I0.011 J0.317
G1 Y35.081 F50
X11.682 Y35.23
X11.658 Y35.378
X11.615 Y35.522
X11.557 Y35.661
X11.486 Y35.793
X11.404 Y35.918
X11.305 Y36.044
X11.186 Y36.173
X11.054 Y36.294
X10.904 Y36.412
X10.734 Y36.525
X10.549 Y36.627
X10.354 Y36.715
X10.148 Y36.789
X9.933 Y36.846
X9.727 Y36.885
X9.636 Y36.894
X9.539 Y36.9
X9.339 Y36.905
X9.168 Y36.895
X9.015 Y36.873
X8.846 Y36.836
X8.833 Y36.832
X8.623 Y36.728
X8.456 Y36.564
X8.348 Y36.356
X8.311 Y36.124
Y35.19
G3 X8.615 Y34.884 Z-0.809 I0.317 J0.011
G1 X8.639 Y34.883 Z-0.8
X8.887 Y34.873
X11.113 Y34.784
X11.359 Y34.774 F20
X11.361
G3 X11.689 Y35.081 Z-1 I0.011 J0.317
G1 Y36.085 F50
X11.682 Y36.235
X11.66 Y36.383
X11.619 Y36.528
X11.563 Y36.667
X11.494 Y36.8
X11.413 Y36.926
X11.322 Y37.046
X11.223 Y37.158
X11.116 Y37.263
X11.001 Y37.36
X10.438 Y37.782
X10.296 Y37.829
X10.152 Y37.87
X10.006 Y37.904
X9.858 Y37.93
X9.709 Y37.95
X9.56 Y37.961
X9.41 Y37.963
X9.26 Y37.957
X9.111 Y37.941
X8.963 Y37.916
X8.875 Y37.894
X8.692 Y37.823
X8.534 Y37.705
X8.413 Y37.551
X8.337 Y37.37
X8.311 Y37.175
Y36.124
G3 X8.624 Y35.818 Z-0.806 I0.317 J0.011
G1 X8.639 Y35.817 Z-0.8
X8.887 Y35.814
X11.113 Y35.782
X11.361 Y35.779 F20
X11.368 Z-0.803
G3 X11.689 Y36.085 Z-1 I0.004 J0.317
G1 Y38.002 F50
X11.69 Y38.17
X11.693 Y38.429
G3 X11.522 Y38.703 Z-0.864 I-0.317 J-0.008
G1 X11.38 Y38.777 Z-0.8
X11.16 Y38.892
X7.889 Y40.6
X7.836 Y40.622
X7.781 Y40.634
X7.724 Y40.636
X7.663 Y40.626 F20
X7.605 Y40.605
X7.552 Y40.573
X7.506 Y40.531
G3 X7.529 Y40.083 Z-1 I0.236 J-0.212
G1 X7.614 Y40.011 F50
X7.787 Y39.844
X7.827 Y39.797
X7.919 Y39.677
X7.994 Y39.575
X8.034 Y39.509
X8.111 Y39.342
X8.185 Y39.174
X8.24 Y39.007
X8.279 Y38.839
X8.301 Y38.672
X8.307 Y38.505
X8.31 Y38.17
X8.311 Y37.5
Y37.175
G3 X8.884 Y36.998 I0.317 J0.011
G1 X8.926 Y37.055 Z-0.992
X8.965 Y37.109 Z-0.969
X9.001 Y37.158 Z-0.931
X9.031 Y37.198 Z-0.88
X9.053 Y37.229 Z-0.82
X9.067 Y37.248 Z-0.753
X9.072 Y37.254 Z-0.682
Z3
X23.099 Y32.126
Z-0.365
Z-0.682 F20
X23.092 Y32.121 Z-0.753
X23.074 Y32.107 Z-0.82
X23.044 Y32.084 Z-0.88
X23.004 Y32.054 Z-0.931
X22.956 Y32.017 Z-0.969
X22.903 Y31.976 Z-0.992
X22.847 Y31.933 Z-1
G3 X21.582 Y30.729 I4.926 J-6.437
G1 X21.509 Y30.635 F50
X21.367 Y30.494
X21.297 Y30.432
X21.189 Y30.328
X21.096 Y30.21
X21.002 Y30.066
X20.901 Y29.881
X20.795 Y29.641
X20.683 Y29.323
X20.566 Y28.881
X20.446 Y28.21
X20.374 Y27.476
X20.337 Y26.739
X20.318 Y26.002
X20.308 Y25.264
X20.303 Y24.526
X20.3 Y23.788
X20.298 Y22.313
X20.297 Y14.197
Y6.592
X20.327 Y6.383
X20.415 Y6.191
X20.553 Y6.031
X20.731 Y5.918
G3 X21.129 Y6.366 I0.121 J0.293
G1 X21.095 Y6.428 Z-0.992
X21.062 Y6.486 Z-0.969
X21.033 Y6.539 Z-0.931
X21.008 Y6.583 Z-0.88
X20.99 Y6.616 Z-0.82
X20.978 Y6.636 Z-0.753
X20.974 Y6.643 Z-0.682
Z3
X22.324 Y30.813
Z-0.365
Z-0.682 F20
X22.317 Y30.811 Z-0.753
X22.294 Y30.807 Z-0.82
X22.256 Y30.8 Z-0.88
X22.207 Y30.792 Z-0.931
X22.148 Y30.781 Z-0.969
X22.081 Y30.769 Z-0.992
X22.012 Y30.757 Z-1
G3 X21.297 Y30.432 I0.278 J-1.558
G1 X21.2 Y30.348 F50
X21.033 Y30.234
X20.866 Y30.145
X20.842 Y30.133
X20.699 Y30.066
X20.671 Y30.056
X20.532 Y29.999
X20.407 Y29.916
X20.292 Y29.821
X20.179 Y29.708
X20.052 Y29.56
X19.933 Y29.395
X19.808 Y29.19
X19.671 Y28.919
X19.543 Y28.602
X19.406 Y28.169
X19.271 Y27.581
X19.164 Y26.851
X19.104 Y26.115
X19.07 Y25.378
X19.051 Y24.641
X19.04 Y23.903
X19.034 Y23.165
X19.031 Y22.427
X19.028 Y20.952
X19.027 Y16.525
Y7.671
X19.042 Y7.257
X19.079 Y6.936
X19.125 Y6.702
X19.147 Y6.624
X19.222 Y6.449
X19.339 Y6.299
X19.49 Y6.184
X19.666 Y6.111
X19.854 Y6.085
X20.03 Y6.083
X20.197 Y6.064
X20.364 Y6.034
X20.532 Y5.993
X20.699 Y5.932
X20.731 Y5.918
G3 X21.129 Y6.366 I0.121 J0.293
G1 X21.095 Y6.428 Z-0.992
X21.062 Y6.486 Z-0.969
X21.033 Y6.539 Z-0.931
X21.008 Y6.583 Z-0.88
X20.99 Y6.616 Z-0.82
X20.978 Y6.636 Z-0.753
X20.974 Y6.643 Z-0.682
Z3
X21.767 Y30.04
Z-0.365
Z-0.682 F20
X21.759 Y30.042 Z-0.753
X21.736 Y30.046 Z-0.82
X21.699 Y30.053 Z-0.88
X21.649 Y30.063 Z-0.931
X21.59 Y30.075 Z-0.969
X21.524 Y30.088 Z-0.992
X21.455 Y30.101 Z-1
G3 X20.671 Y30.056 I-0.305 J-1.553
G1 X20.532 Y30.007 F50
X20.362 Y29.966
X20.197 Y29.936
X20.03 Y29.917
X19.881 Y29.9
X19.738 Y29.854
X19.602 Y29.792
X19.473 Y29.715
X19.351 Y29.628
X19.214 Y29.511
X19.081 Y29.378
X18.937 Y29.21
X18.781 Y28.993
X18.637 Y28.756
X18.476 Y28.434
X18.326 Y28.063
X18.17 Y27.566
X18.019 Y26.905
X17.914 Y26.175
X17.85 Y25.44
X17.812 Y24.703
X17.789 Y23.965
X17.776 Y23.228
X17.768 Y22.49
X17.763 Y21.752
X17.76 Y21.014
X17.758 Y19.539
X17.757 Y14.374
Y8.471
X17.778 Y7.734
X17.823 Y7.325
X17.878 Y7.037
X17.948 Y6.781
X18.022 Y6.578
X18.049 Y6.52
X18.163 Y6.343
X18.323 Y6.205
X18.514 Y6.117
X18.723 Y6.088
X19.529 Y6.087
X19.854 Y6.085
Z3
X21.06 Y29.541
Z-0.365
Z-0.682 F20
X21.053 Y29.545 Z-0.753
X21.032 Y29.557 Z-0.82
X21 Y29.576 Z-0.88
X20.956 Y29.602 Z-0.931
X20.904 Y29.632 Z-0.969
X20.846 Y29.666 Z-0.992
X20.785 Y29.701 Z-1
G3 X20.03 Y29.917 I-0.798 J-1.367
G1 X19.529 Y29.913 F50
X19.269
X19.12 Y29.905
X18.97 Y29.893
X18.824 Y29.861
X18.681 Y29.814
X18.544 Y29.752
X18.413 Y29.68
X18.288 Y29.597
X18.168 Y29.506
X18.055 Y29.408
X17.947 Y29.304
X17.846 Y29.193
X17.749 Y29.078
X17.658 Y28.959
X17.572 Y28.836
X17.492 Y28.71
X17.415 Y28.581
X17.343 Y28.449
X17.275 Y28.315
X17.212 Y28.179
X17.153 Y28.042
X17.097 Y27.902
X17.045 Y27.762
X16.995 Y27.62
X16.949 Y27.477
X16.907 Y27.334
X16.867 Y27.189
X16.83 Y27.044
X16.795 Y26.898
X16.763 Y26.751
X16.733 Y26.604
X16.706 Y26.457
X16.68 Y26.309
X16.656 Y26.161
X16.634 Y26.013
X16.613 Y25.864
X16.594 Y25.715
X16.576 Y25.566
X16.56 Y25.417
X16.545 Y25.268
X16.531 Y25.115
X16.516 Y24.944
X16.502 Y24.759
X16.488 Y24.568
X16.474 Y24.35
X16.46 Y24.096
X16.447 Y23.822
X16.433 Y23.493
X16.42 Y23.099
X16.407 Y22.597
X16.394 Y21.925
X16.385 Y21.187
X16.38 Y20.449
X16.377 Y19.711
X16.374 Y18.236
X16.373 Y13.809
Y9.751
X16.375 Y9.26
X16.377 Y9.093
X16.38 Y8.943
X16.384 Y8.793
X16.39 Y8.643
X16.396 Y8.494
X16.405 Y8.344
X16.416 Y8.194
X16.429 Y8.045
X16.444 Y7.896
X16.463 Y7.747
X16.484 Y7.598
X16.508 Y7.45
X16.536 Y7.303
X16.569 Y7.156
X16.606 Y7.011
X16.648 Y6.867
X16.696 Y6.725
X16.751 Y6.585
X16.778 Y6.524
X16.892 Y6.345
X17.051 Y6.206
X17.244 Y6.118
X17.454 Y6.088
X18.723
G3 X18.899 Y6.661 I-0.011 J0.317
G1 X18.842 Y6.703 Z-0.992
X18.788 Y6.742 Z-0.969
X18.74 Y6.778 Z-0.931
X18.699 Y6.808 Z-0.88
X18.669 Y6.83 Z-0.82
X18.65 Y6.844 Z-0.753
X18.643 Y6.849 Z-0.682
Z3
X20.296 Y29.529
Z-0.365
Z-0.682 F20
X20.289 Y29.533 Z-0.753
X20.269 Y29.545 Z-0.82
X20.236 Y29.564 Z-0.88
X20.193 Y29.59 Z-0.931
X20.141 Y29.621 Z-0.969
X20.084 Y29.655 Z-0.992
X20.023 Y29.691 Z-1
G3 X19.269 Y29.913 I-0.809 J-1.36
G1 X18.191 F50
X18.041 Y29.905
X17.893 Y29.884
X17.748 Y29.846
X17.607 Y29.794
X17.466 Y29.727
X17.315 Y29.64
X17.156 Y29.531
X16.99 Y29.396
X16.815 Y29.228
X16.633 Y29.024
X16.54 Y28.901
X16.493 Y28.833
X16.446 Y28.763
X16.256 Y28.466
X16.064 Y28.106
X16.028 Y28.021
X15.992 Y27.936
G3 X16.178 Y27.527 Z-0.8 I0.297 J-0.112
X16.507 Y27.593 I0.112 J0.297
G1 X18.397 Y29.363
X18.438 Y29.41 F20
X18.469 Y29.464
X18.489 Y29.523
X18.497 Y29.584
G3 X18.191 Y29.913 Z-1 I-0.317 J0.011
G1 X17.096 F50
X16.946 Y29.905
X16.798 Y29.881
X16.654 Y29.842
X16.514 Y29.788
X16.359 Y29.715
X16.199 Y29.622
X16.021 Y29.572
X15.837 Y29.567
X15.477 Y29.649
X15.18 Y29.817
X15.065 Y29.869
X14.942 Y29.902
X14.816 Y29.913
G3 X14.51 Y29.584 Z-0.8 I0.011 J-0.317
X14.827 Y29.278 I0.317 J0.011
G1 X17.085
X17.145 Y29.283
X17.202 Y29.3
X17.255 Y29.327
X17.303 Y29.364
X17.343 Y29.411 F20
X17.374 Y29.464
X17.394 Y29.523
X17.403 Y29.584
G3 X17.096 Y29.913 Z-1 I-0.317 J0.011
G1 X14.012 F50
X13.845 Y29.917
X13.678 Y29.926
X13.425 Y29.966
X13.343 Y29.986
X13.176 Y30.034
X13.009 Y30.094
X12.922 Y30.133
X12.675 Y30.267
X12.595 Y30.325
G3 X12.117 Y29.963 I-0.176 J-0.264
G1 X12.138 Y29.895 Z-0.992
X12.159 Y29.832 Z-0.969
X12.178 Y29.774 Z-0.931
X12.193 Y29.727 Z-0.88
X12.205 Y29.691 Z-0.82
X12.212 Y29.668 Z-0.753
X12.215 Y29.661 Z-0.682
Z3
X7.473 Y6.333
Z-0.365
Z-0.682 F20
X7.474 Y6.325 Z-0.753
X7.478 Y6.302 Z-0.82
X7.483 Y6.265 Z-0.88
X7.491 Y6.215 Z-0.931
X7.5 Y6.155 Z-0.969
X7.51 Y6.089 Z-0.992
X7.52 Y6.019 Z-1
G3 X7.827 Y5.296 I1.565 J0.237
G1 X7.917 Y5.186 F50
X8.026 Y5.018
X8.112 Y4.851
X8.183 Y4.719
X8.282 Y4.607
X8.398 Y4.512
X8.526 Y4.432
X8.661 Y4.368
X8.802 Y4.317
X8.949 Y4.28
X9.104 Y4.253
X9.279 Y4.237
X9.471 Y4.234
X9.675 Y4.248
X9.905 Y4.283
X10.137 Y4.337
X10.396 Y4.42
X10.673 Y4.534
X10.951 Y4.675
X11.255 Y4.863
X11.575 Y5.096
X11.891 Y5.369
X12.23 Y5.712
X12.582 Y6.131
X12.908 Y6.59
X13.242 Y7.149
X13.322 Y7.315
X13.638 Y7.982
X13.899 Y8.672
X14.006 Y9.025
X14.056 Y9.203
X14.103 Y9.381
G3 X13.862 Y9.76 Z-0.8 I-0.31 J0.069
X13.59 Y9.694 I-0.069 J-0.31
G1 X8.461 Y5.437
X8.27 Y5.279 F20
X8.2 Y5.221 Z-0.836
G3 X8.112 Y4.851 Z-1 I0.203 J-0.244
G1 X8.161 Y4.746 F50
X8.186 Y4.683
X8.239 Y4.516
X8.268 Y4.383
X8.307 Y4.238
X8.375 Y4.104
X8.464 Y3.983
X8.569 Y3.876
X8.685 Y3.782
X8.811 Y3.7
X8.944 Y3.63
X9.085 Y3.571
X9.243 Y3.519
X9.423 Y3.475
X9.613 Y3.445
X9.831 Y3.429
X10.06
X10.306 Y3.45
X10.583 Y3.496
X10.864 Y3.566
X11.168 Y3.669
X11.276 Y3.715
X11.441 Y3.812
X11.575 Y3.949
X11.67 Y4.116
X11.719 Y4.301
X11.725 Y4.349
X11.761 Y4.516
X11.814 Y4.683
X11.839 Y4.746
X11.888 Y4.851
X11.974 Y5.018
X12.083 Y5.186
X12.221 Y5.353
X12.34 Y5.471
X12.393 Y5.521
X12.508 Y5.616
X12.606 Y5.688
X12.675 Y5.731
X12.842 Y5.827
X12.898 Y5.856
X13.009 Y5.902
X13.146 Y5.964
X13.285 Y6.04
X13.441 Y6.144
X13.514 Y6.201
X13.655 Y6.32
X13.821 Y6.4
X14.002 Y6.436
X14.186 Y6.427
X14.891 Y6.208
X15.007 Y6.142
X15.133 Y6.101
X15.266 Y6.088
G3 X15.572 Y6.416 Z-0.8 I-0.011 J0.317
X15.227 Y6.721 I-0.317 J-0.011
G1 X12.876 Y6.518
G3 X12.617 Y6.338 I0.027 J-0.316
G1 X12.596 Y6.279 F20
X12.587 Y6.218
X12.589 Y6.156
X12.604 Y6.096
G3 X13.009 Y5.902 Z-1 I0.299 J0.106
G1 X13.176 Y5.968 F50
X13.38 Y6.023
X13.511 Y6.048
X13.678 Y6.074
X13.845 Y6.083
X14.012 Y6.087
X17.454 Y6.088
G3 X17.63 Y6.661 I-0.011 J0.317
G1 X17.573 Y6.703 Z-0.992
X17.519 Y6.742 Z-0.969
X17.471 Y6.778 Z-0.931
X17.43 Y6.808 Z-0.88
X17.4 Y6.83 Z-0.82
X17.381 Y6.844 Z-0.753
X17.374 Y6.849 Z-0.682
Z3
X13.819 Y-3.143
Z-0.365
Z-0.682 F20
X13.815 Y-3.137 Z-0.753
X13.801 Y-3.117 Z-0.82
X13.779 Y-3.087 Z-0.88
X13.75 Y-3.046 Z-0.931
X13.715 Y-2.997 Z-0.969
X13.675 Y-2.942 Z-0.992
X13.634 Y-2.885 Z-1
G3 X12.471 Y-1.583 I-6.59 J-4.719
G1 X12.386 Y-1.511 F50
X12.213 Y-1.344
X12.173 Y-1.297
X12.076 Y-1.183
X11.957 Y-1.092
X11.811 Y-0.997
X11.623 Y-0.895
X11.378 Y-0.788
X11.054 Y-0.676
X10.601 Y-0.559
X9.908 Y-0.438
X9.173 Y-0.369
X8.845 Y-0.354
X8.625 Y-0.376
X8.42 Y-0.463
X8.251 Y-0.606
X8.132 Y-0.793
G3 X8.308 Y-1.206 Z-0.8 I0.295 J-0.118
G1 X8.376 Y-1.225
X8.551 Y-1.254
X11.862 Y-1.794
X11.863 F20
X11.925 Y-1.798
X11.986 Y-1.79
X12.044 Y-1.77
X12.098 Y-1.74
G3 X12.173 Y-1.297 Z-1 I-0.184 J0.259
G1 X12.081 Y-1.177 F50
X12.006 Y-1.075
X11.966 Y-1.009
X11.889 Y-0.842
X11.815 Y-0.674
X11.754 Y-0.537
X11.681 Y-0.406
X11.594 Y-0.284
X11.495 Y-0.171
X11.387 Y-0.067
X11.273 Y0.03
X11.152 Y0.119
X11.027 Y0.202
X10.897 Y0.277
X10.764 Y0.347
X10.629 Y0.41
X10.491 Y0.469
X10.351 Y0.523
X10.209 Y0.572
X10.066 Y0.617
X9.921 Y0.655
X9.774 Y0.688
X9.627 Y0.715
X9.478 Y0.734
X9.329 Y0.745
X9.179 Y0.748
X9.029 Y0.743
X8.973 Y0.737
X8.764 Y0.685
X8.579 Y0.574
X8.434 Y0.415
X8.34 Y0.221
X8.307 Y0.008
G3 X8.541 Y-0.291 Z-0.837 I0.317 J0.008
G1 X8.63 Y-0.315 Z-0.8
X8.869 Y-0.379
X11.356 Y-1.05
X11.428 Y-1.07 F20
X11.485 Y-1.08
X11.542 Y-1.079
X11.599 Y-1.068
G3 X11.815 Y-0.674 Z-1 I-0.089 J0.305
G1 X11.76 Y-0.507 F50
X11.721 Y-0.339
X11.699 Y-0.172
X11.695 Y-0.038
X11.682 Y0.111
X11.645 Y0.256
X11.59 Y0.396
X11.503 Y0.559
X11.459 Y0.738
X11.463 Y1.107
X11.647 Y1.623
X11.67 Y1.704
X11.685 Y1.787
X11.689 Y1.871
G3 X11.361 Y2.177 Z-0.8 I-0.317 J-0.011
X11.054 Y1.859 I0.011 J-0.317
G1 X11.06 Y-0.039
X11.066 Y-0.101
X11.084 Y-0.161
X11.114 Y-0.216
X11.153 Y-0.264
X11.201 Y-0.303 F20
X11.256 Y-0.332
X11.315 Y-0.35
X11.377 Y-0.356
G3 X11.695 Y-0.038 Z-1 I0 J0.317
G1 X11.693 Y-0.005 F50
X11.69 Y0.33
X11.689 Y1
Y3.679
X11.693 Y3.846
X11.703 Y4.181
X11.719 Y4.301
G3 X11.432 Y4.647 Z-0.8 I-0.316 J0.029
G1 X11.415 Y4.648
X11.184 Y4.657
X8.772 Y4.749
X8.593 Y4.756 F20
X8.524 Y4.751
G3 X8.268 Y4.383 Z-1 I0.056 J-0.312
G1 X8.275 Y4.349 F50
X8.297 Y4.181
X8.307 Y3.846
X8.311 Y3.679
Y0.498
X8.31 Y0.33
X8.307 Y0.008
G3 X8.601 Y-0.301 I0.317 J0.008
G1 X8.623 Y-0.302 Z-0.999
X8.624
X8.678 Y-0.288 Z-0.99
X8.729 Y-0.275 Z-0.971
X8.776 Y-0.263 Z-0.943
X8.811 Y-0.233 Z-0.904
X8.839 Y-0.208 Z-0.856
X8.861 Y-0.19 Z-0.802
X8.874 Y-0.179 Z-0.744
X8.878 Y-0.175 Z-0.683
Z3
X4.383 Y6.767
Z-0.265
Z-0.582 F20
X4.391 Y6.763 Z-0.653
X4.412 Y6.753 Z-0.72
X4.446 Y6.737 Z-0.78
X4.492 Y6.716 Z-0.831
X4.546 Y6.69 Z-0.869
X4.607 Y6.662 Z-0.892
X4.671 Y6.632 Z-0.9
G3 X6.322 Y6.064 I3.445 J7.337
G1 X6.539 Y6.023 F50
X6.657 Y5.991
X6.824 Y5.939
X7.015 Y5.856
X7.158 Y5.778
X7.325 Y5.679
X7.525 Y5.521
X7.66 Y5.392
X7.698 Y5.353
X7.764 Y5.275
X7.827 Y5.196
X8.034 Y4.851
X8.072 Y4.767
X8.104 Y4.683
X8.161 Y4.502
X8.193 Y4.349
X8.214 Y4.181
X8.224 Y3.846
X8.228 Y3.679
Y0.498
Y0.33
X8.225 Y0.071
Z3
X7.298 Y41.365
Z-0.265
Z-0.582 F20
X7.3 Y41.357 Z-0.653
X7.306 Y41.335 Z-0.72
X7.315 Y41.298 Z-0.78
X7.328 Y41.249 Z-0.831
X7.343 Y41.191 Z-0.869
X7.36 Y41.126 Z-0.892
X7.377 Y41.058 Z-0.9
G3 X7.994 Y39.424 I7.848 J2.029
G1 X8.039 Y39.342 F50
X8.106 Y39.174
X8.157 Y39.007
X8.196 Y38.839
X8.218 Y38.672
X8.224 Y38.505
X8.228 Y38.17
Y37.5
Y32.142
X8.226 Y31.975
X8.216 Y31.807
X8.191 Y31.64
X8.161 Y31.505
X8.03 Y31.138
X7.994 Y31.066
X7.934 Y30.97
X7.826 Y30.803
X7.66 Y30.61
X7.585 Y30.531
X7.51 Y30.468
X7.325 Y30.323
X7.293 Y30.3
X7.158 Y30.221
X6.991 Y30.132
X6.824 Y30.065
X6.657 Y30.011
X6.489 Y29.967
X6.322 Y29.936
X6.155 Y29.921
G3 X6.029 Y29.335 I0.039 J-0.315
G1 X6.089 Y29.298 Z-0.892
X6.147 Y29.263 Z-0.869
X6.198 Y29.232 Z-0.831
X6.241 Y29.206 Z-0.78
X6.273 Y29.186 Z-0.72
X6.293 Y29.174 Z-0.653
X6.3 Y29.17 Z-0.582
Z3
X12.702 Y-2.865
Z-0.265
Z-0.582 F20
X12.7 Y-2.857 Z-0.653
X12.694 Y-2.835 Z-0.72
X12.685 Y-2.798 Z-0.78
X12.672 Y-2.749 Z-0.831
X12.657 Y-2.691 Z-0.869
X12.64 Y-2.626 Z-0.892
X12.623 Y-2.558 Z-0.9
G3 X12.006 Y-0.924 I-7.848 J-2.029
G1 X11.961 Y-0.842 F50
X11.894 Y-0.674
X11.843 Y-0.507
X11.804 Y-0.339
X11.782 Y-0.172
X11.776 Y-0.005
X11.772 Y0.33
Y1
Y3.679
X11.776 Y3.846
X11.786 Y4.181
X11.807 Y4.349
X11.839 Y4.502
X11.896 Y4.683
X11.928 Y4.767
X11.966 Y4.851
X12.173 Y5.196
X12.236 Y5.275
X12.302 Y5.353
X12.34 Y5.392
X12.475 Y5.521
X12.675 Y5.679
X12.842 Y5.778
X12.985 Y5.856
X13.176 Y5.939
X13.343 Y5.991
X13.461 Y6.023
X13.678 Y6.064
X13.845 Y6.079
G3 X13.971 Y6.665 I-0.039 J0.315
G1 X13.911 Y6.702 Z-0.892
X13.853 Y6.737 Z-0.869
X13.802 Y6.768 Z-0.831
X13.759 Y6.794 Z-0.78
X13.727 Y6.814 Z-0.72
X13.707 Y6.826 Z-0.653
X13.7 Y6.83 Z-0.582
Z3
X15.617 Y29.233
Z-0.265
Z-0.582 F20
X15.609 Y29.237 Z-0.653
X15.588 Y29.247 Z-0.72
X15.554 Y29.263 Z-0.78
X15.508 Y29.284 Z-0.831
X15.454 Y29.31 Z-0.869
X15.393 Y29.338 Z-0.892
X15.329 Y29.368 Z-0.9
G3 X13.678 Y29.936 I-3.444 J-7.338
G1 X13.511 Y29.967 F50
X13.343 Y30.011
X13.176 Y30.065
X13.008 Y30.133
X12.842 Y30.221
X12.707 Y30.3
X12.675 Y30.323
X12.49 Y30.468
X12.415 Y30.531
X12.34 Y30.61
X12.173 Y30.804
X12.066 Y30.97
X12.006 Y31.066
X11.97 Y31.138
X11.839 Y31.505
X11.809 Y31.64
X11.784 Y31.807
X11.774 Y31.975
X11.772 Y32.142
Y38.002
Y38.17
X11.775 Y38.429
G3 X11.481 Y38.738 I-0.317 J-0.008
G1 X11.459 Y38.739 Z-0.899
X11.458
X11.404 Y38.725 Z-0.89
X11.353 Y38.712 Z-0.871
X11.306 Y38.7 Z-0.843
X11.271 Y38.67 Z-0.804
X11.242 Y38.645 Z-0.756
X11.221 Y38.627 Z-0.702
X11.208 Y38.616 Z-0.644
X11.204 Y38.612 Z-0.583
Z3
X3.571 Y6.757
Z-0.165
Z-0.482 F20
X3.578 Y6.753 Z-0.553
X3.598 Y6.741 Z-0.62
X3.63 Y6.721 Z-0.68
X3.673 Y6.695 Z-0.731
X3.725 Y6.664 Z-0.769
X3.782 Y6.629 Z-0.792
X3.843 Y6.593 Z-0.8
G3 X5.514 Y6.087 I1.822 J3.01
G1 X5.988 Y6.083 F50
X6.155 Y6.072
X6.322 Y6.051
X6.489 Y6.014
X6.657 Y5.965
X6.824 Y5.906
X6.991 Y5.826
X7.158 Y5.732
X7.229 Y5.688
X7.325 Y5.617
X7.443 Y5.521
X7.492 Y5.476
X7.609 Y5.353
X7.752 Y5.186
X7.859 Y5.018
X7.948 Y4.851
X7.994 Y4.752
X8.024 Y4.683
X8.074 Y4.516
X8.111 Y4.349
X8.132 Y4.181
X8.142 Y3.846
X8.146 Y3.679
Y0.498
X8.145 Y0.33
X8.142 Y0.071
Z3
X7.238 Y41.372
Z-0.165
Z-0.482 F20
X7.24 Y41.365 Z-0.553
X7.245 Y41.342 Z-0.62
X7.255 Y41.305 Z-0.68
X7.267 Y41.256 Z-0.731
X7.281 Y41.198 Z-0.769
X7.297 Y41.133 Z-0.792
X7.314 Y41.064 Z-0.8
G3 X7.911 Y39.423 I7.871 J1.937
G1 X7.955 Y39.342 F50
X8.027 Y39.174
X8.075 Y39.007
X8.114 Y38.839
X8.136 Y38.672
X8.142 Y38.505
X8.145 Y38.17
X8.146 Y37.5
Y32.142
X8.143 Y31.975
X8.134 Y31.807
X8.108 Y31.64
X8.071 Y31.472
X8.017 Y31.305
X7.942 Y31.138
X7.852 Y30.97
X7.743 Y30.803
X7.599 Y30.635
X7.492 Y30.527
X7.325 Y30.384
X7.205 Y30.3
X7.158 Y30.271
X6.991 Y30.174
X6.824 Y30.095
X6.657 Y30.035
X6.489 Y29.986
X6.322 Y29.949
X6.155 Y29.928
X5.988 Y29.917
X5.654 Y29.914
G3 X5.483 Y29.339 I0.014 J-0.317
G1 X5.54 Y29.297 Z-0.792
X5.595 Y29.258 Z-0.769
X5.644 Y29.223 Z-0.731
X5.685 Y29.194 Z-0.68
X5.715 Y29.172 Z-0.62
X5.735 Y29.158 Z-0.553
X5.741 Y29.154 Z-0.482
Z3
X12.762 Y-2.872
Z-0.165
Z-0.482 F20
X12.76 Y-2.865 Z-0.553
X12.755 Y-2.842 Z-0.62
X12.745 Y-2.805 Z-0.68
X12.733 Y-2.756 Z-0.731
X12.719 Y-2.698 Z-0.769
X12.703 Y-2.633 Z-0.792
X12.686 Y-2.564 Z-0.8
G3 X12.089 Y-0.923 I-7.871 J-1.937
G1 X12.045 Y-0.842 F50
X11.973 Y-0.674
X11.925 Y-0.507
X11.886 Y-0.339
X11.864 Y-0.172
X11.858 Y-0.005
X11.855 Y0.33
X11.854 Y1
Y3.679
X11.858 Y3.846
X11.868 Y4.181
X11.889 Y4.349
X11.926 Y4.516
X11.976 Y4.683
X12.006 Y4.752
X12.052 Y4.851
X12.141 Y5.018
X12.248 Y5.186
X12.391 Y5.353
X12.508 Y5.476
X12.557 Y5.521
X12.675 Y5.617
X12.771 Y5.688
X12.842 Y5.732
X13.009 Y5.826
X13.176 Y5.906
X13.343 Y5.965
X13.511 Y6.014
X13.678 Y6.051
X13.845 Y6.072
X14.012 Y6.083
X14.346 Y6.086
G3 X14.517 Y6.661 I-0.014 J0.317
G1 X14.46 Y6.703 Z-0.792
X14.405 Y6.742 Z-0.769
X14.356 Y6.777 Z-0.731
X14.315 Y6.806 Z-0.68
X14.285 Y6.828 Z-0.62
X14.265 Y6.842 Z-0.553
X14.259 Y6.846 Z-0.482
Z3
X15.592 Y29.181
Z-0.165
Z-0.482 F20
X15.585 Y29.185 Z-0.553
X15.564 Y29.196 Z-0.62
X15.53 Y29.213 Z-0.68
X15.485 Y29.236 Z-0.731
X15.432 Y29.263 Z-0.769
X15.372 Y29.294 Z-0.792
X15.309 Y29.326 Z-0.8
G3 X13.678 Y29.949 I-3.689 J-7.217
G1 X13.511 Y29.986 F50
X13.343 Y30.035
X13.176 Y30.095
X13.009 Y30.174
X12.842 Y30.271
X12.795 Y30.3
X12.675 Y30.384
X12.508 Y30.527
X12.401 Y30.635
X12.257 Y30.803
X12.148 Y30.97
X12.058 Y31.138
X11.983 Y31.305
X11.929 Y31.472
X11.892 Y31.64
X11.866 Y31.807
X11.857 Y31.975
X11.854 Y32.142
Y38.002
X11.855 Y38.17
X11.858 Y38.429
G3 X11.563 Y38.738 I-0.317 J-0.008
G1 X11.541 Y38.739 Z-0.799
X11.54
X11.487 Y38.725 Z-0.79
X11.436 Y38.712 Z-0.771
X11.389 Y38.7 Z-0.743
X11.354 Y38.67 Z-0.704
X11.325 Y38.645 Z-0.656
X11.304 Y38.627 Z-0.602
X11.291 Y38.616 Z-0.544
X11.286 Y38.612 Z-0.483
Z3
X4.107 Y6.906
Z-0.065
Z-0.382 F20
X4.114 Y6.902 Z-0.453
X4.133 Y6.888 Z-0.52
X4.163 Y6.866 Z-0.58
X4.204 Y6.836 Z-0.631
X4.253 Y6.801 Z-0.669
X4.307 Y6.761 Z-0.692
X4.364 Y6.72 Z-0.7
G3 X5.988 Y6.077 I2.067 J2.848
G1 X6.155 Y6.062 F50
X6.322 Y6.035
X6.489 Y5.992
X6.657 Y5.936
X6.824 Y5.869
X6.991 Y5.782
X7.158 Y5.681
X7.325 Y5.552
X7.362 Y5.521
X7.534 Y5.353
X7.66 Y5.2
X7.777 Y5.018
X7.827 Y4.935
X7.866 Y4.851
X7.938 Y4.683
X7.994 Y4.5
X8.029 Y4.349
X8.049 Y4.181
X8.059 Y3.846
X8.063 Y3.679
Y0.498
Y0.33
X8.06 Y0.071
Z3
X7.152 Y41.378
Z-0.065
Z-0.382 F20
X7.154 Y41.37 Z-0.453
X7.159 Y41.347 Z-0.52
X7.168 Y41.31 Z-0.58
X7.18 Y41.261 Z-0.631
X7.195 Y41.203 Z-0.669
X7.211 Y41.138 Z-0.692
X7.228 Y41.069 Z-0.7
G3 X7.827 Y39.429 I7.869 J1.944
G1 X7.874 Y39.342 F50
X7.941 Y39.174
X7.994 Y39.007
X8.028 Y38.839
X8.053 Y38.672
X8.059 Y38.505
X8.063 Y38.17
Y37.5
Y32.142
X8.058 Y31.975
X8.011 Y31.547
X8.006 Y31.529
X7.935 Y31.305
X7.86 Y31.138
X7.827 Y31.065
X7.771 Y30.97
X7.659 Y30.803
X7.523 Y30.635
X7.492 Y30.603
X7.325 Y30.452
X7.158 Y30.323
X7.124 Y30.3
X6.991 Y30.216
X6.824 Y30.131
X6.657 Y30.061
X6.489 Y30.008
X6.322 Y29.965
X6.155 Y29.938
X5.988 Y29.923
X5.654 Y29.915
Z3
X12.848 Y-2.878
Z-0.065
Z-0.382 F20
X12.846 Y-2.87 Z-0.453
X12.841 Y-2.847 Z-0.52
X12.832 Y-2.81 Z-0.58
X12.82 Y-2.761 Z-0.631
X12.805 Y-2.703 Z-0.669
X12.789 Y-2.638 Z-0.692
X12.772 Y-2.569 Z-0.7
G3 X12.173 Y-0.929 I-7.869 J-1.944
G1 X12.126 Y-0.842 F50
X12.059 Y-0.674
X12.006 Y-0.507
X11.972 Y-0.339
X11.947 Y-0.172
X11.941 Y-0.005
X11.937 Y0.33
Y1
Y3.679
X11.941 Y3.846
X11.951 Y4.181
X11.971 Y4.349
X12.006 Y4.5
X12.062 Y4.683
X12.134 Y4.851
X12.173 Y4.935
X12.223 Y5.018
X12.34 Y5.2
X12.466 Y5.353
X12.638 Y5.521
X12.675 Y5.552
X12.842 Y5.681
X13.009 Y5.782
X13.176 Y5.869
X13.343 Y5.936
X13.511 Y5.992
X13.678 Y6.035
X13.845 Y6.062
X14.012 Y6.077
X14.346 Y6.085
Z3
X16.423 Y29.226
Z-0.065
Z-0.382 F20
X16.416 Y29.23 Z-0.453
X16.396 Y29.242 Z-0.52
X16.364 Y29.262 Z-0.58
X16.321 Y29.289 Z-0.631
X16.27 Y29.32 Z-0.669
X16.213 Y29.355 Z-0.692
X16.153 Y29.393 Z-0.7
G3 X14.486 Y29.913 I-1.849 J-2.994
G1 X14.179 Y29.919 F50
X14.012 Y29.923
X13.845 Y29.938
X13.675 Y29.966
X13.511 Y30.008
X13.343 Y30.061
X13.171 Y30.133
X13.009 Y30.216
X12.876 Y30.3
X12.842 Y30.323
X12.675 Y30.452
X12.508 Y30.603
X12.477 Y30.635
X12.34 Y30.804
X12.229 Y30.97
X12.173 Y31.065
X12.14 Y31.138
X12.065 Y31.305
X11.994 Y31.529
X11.989 Y31.547
X11.942 Y31.975
X11.937 Y32.142
Y38.002
Y38.17
X11.94 Y38.429
Z3
X0.158 Y27.781
Z-0.065
Z-0.382 F20
Y27.789 Z-0.453
Y27.813 Z-0.52
X0.159 Y27.85 Z-0.58
X0.16 Y27.901 Z-0.631
X0.161 Y27.961 Z-0.669
X0.162 Y28.028 Z-0.692
X0.163 Y28.099 Z-0.7
G3 X0.003 Y29.837 I-8.105 J0.133
G1 X-0.008 Y29.883 F50
X-0.038 Y29.919
X-0.082 Y29.938
G3 X-0.35 Y29.401 I-0.041 J-0.315
G1 X-0.301 Y29.35 Z-0.692
X-0.254 Y29.302 Z-0.669
X-0.212 Y29.259 Z-0.631
X-0.177 Y29.223 Z-0.58
X-0.15 Y29.196 Z-0.52
X-0.134 Y29.179 Z-0.453
X-0.128 Y29.174 Z-0.382
Z3
X19.825 Y8.22
Z-0.065
Z-0.382 F20
Y8.212 Z-0.453
Y8.188 Z-0.52
X19.824 Y8.15 Z-0.58
X19.823 Y8.1 Z-0.631
X19.822 Y8.04 Z-0.669
X19.821 Y7.973 Z-0.692
X19.82 Y7.902 Z-0.7
G3 X19.98 Y6.163 I8.105 J-0.133
G1 X19.99 Y6.118 F50
X20.02 Y6.083
X20.062 Y6.066
G3 X20.413 Y6.309 I0.041 J0.315
G1 X20.417 Y6.345 Z-0.698
X20.421 Y6.38 Z-0.692
X20.407 Y6.436 Z-0.672
X20.394 Y6.488 Z-0.641
X20.382 Y6.532 Z-0.601
X20.36 Y6.562 Z-0.554
X20.344 Y6.584 Z-0.5
X20.334 Y6.598 Z-0.443
X20.331 Y6.602 Z-0.383
Z3
X-2.898 Y4.915
Z0.035
Z-0.282 F20
X-2.89 Y4.917 Z-0.353
X-2.868 Y4.924 Z-0.42
X-2.832 Y4.935 Z-0.48
X-2.784 Y4.949 Z-0.531
X-2.726 Y4.967 Z-0.569
X-2.662 Y4.986 Z-0.592
X-2.594 Y5.006 Z-0.6
G3 X-0.986 Y5.688 I-2.342 J7.76
G1 X-0.866 Y5.761 F50
X-0.697 Y5.856
X-0.532 Y5.928
X-0.364 Y5.984
X-0.226 Y6.023
X-0.03 Y6.061
X0.137 Y6.071
X0.471 Y6.086
G3 X0.7 Y6.198 Z-0.495 I-0.014 J0.317
G1 X0.74 Y6.238 Z-0.472
X0.786 Y6.27 Z-0.45
X0.838 Y6.293 Z-0.427
X0.892 Y6.307 Z-0.404
X0.903 Y6.308 Z-0.4
X1.148 Y6.347
X4.141 Y6.824
G2 X4.385 Y6.762 I0.05 J-0.314
G3 X5.268 Y6.263 I2.153 J2.783
G1 X5.385 Y6.22 F20
X5.503 Y6.182
G3 X5.988 Y6.069 Z-0.6 I1.035 J3.363
G1 X6.155 Y6.049 F50
X6.298 Y6.023
X6.489 Y5.967
X6.657 Y5.904
X6.771 Y5.856
X6.824 Y5.828
X6.991 Y5.733
X7.066 Y5.688
X7.278 Y5.521
X7.325 Y5.477
X7.492 Y5.302
X7.544 Y5.244
X7.587 Y5.186
X7.694 Y5.018
X7.783 Y4.851
X7.827 Y4.757
X7.856 Y4.683
X7.909 Y4.516
X7.945 Y4.349
X7.967 Y4.181
X7.977 Y3.846
X7.981 Y3.679
Y0.498
X7.98 Y0.33
X7.977 Y0.071
Z3
X7.052 Y41.365
Z0.035
Z-0.282 F20
X7.054 Y41.357 Z-0.353
X7.06 Y41.335 Z-0.42
X7.07 Y41.298 Z-0.48
X7.082 Y41.249 Z-0.531
X7.097 Y41.191 Z-0.569
X7.114 Y41.126 Z-0.592
X7.131 Y41.058 Z-0.6
G3 X7.746 Y39.423 I7.85 J2.021
G1 X7.791 Y39.342 F50
X7.858 Y39.174
X7.91 Y39.007
X7.949 Y38.839
X7.971 Y38.672
X7.977 Y38.505
X7.98 Y38.17
X7.981 Y37.5
Y32.142
X7.978 Y31.975
X7.969 Y31.807
X7.943 Y31.64
X7.905 Y31.472
X7.853 Y31.305
X7.827 Y31.243
X7.778 Y31.138
X7.683 Y30.97
X7.57 Y30.803
X7.492 Y30.696
X7.437 Y30.635
X7.325 Y30.523
X7.264 Y30.468
X7.158 Y30.381
X7.047 Y30.3
X6.991 Y30.266
X6.824 Y30.17
X6.657 Y30.093
X6.489 Y30.033
X6.322 Y29.984
X6.235 Y29.966
X6.155 Y29.951
X5.988 Y29.931
X5.654 Y29.917
X5.562 Y29.915
G3 X5.332 Y29.806 Z-0.495 I0.009 J-0.317
G1 X5.29 Y29.766 Z-0.472
X5.242 Y29.734 Z-0.449
X5.189 Y29.712 Z-0.426
X5.133 Y29.699 Z-0.402
X5.127 Z-0.4
X4.881 Y29.667
X2.487 Y29.358
X2.433 Y29.355
X2.38 Y29.362
X2.328 Y29.378
X2.28 Y29.401
G3 X1.347 Y29.8 I-1.833 J-3.004
G1 X1.227 Y29.829 F20
X1.105 Y29.855
G3 X0.611 Y29.913 Z-0.6 I-0.658 J-3.457
G1 X0.471 Y29.914 F50
X0.137 Y29.929
X-0.03 Y29.939
X-0.197 Y29.971
X-0.364 Y30.016
X-0.456 Y30.046
G3 X-0.799 Y29.553 I-0.086 J-0.306
G1 X-0.758 Y29.496 Z-0.592
X-0.718 Y29.442 Z-0.569
X-0.683 Y29.393 Z-0.531
X-0.653 Y29.353 Z-0.48
X-0.631 Y29.322 Z-0.42
X-0.617 Y29.303 Z-0.353
X-0.613 Y29.297 Z-0.282
Z3
X12.948 Y-2.865
Z0.035
Z-0.282 F20
X12.946 Y-2.857 Z-0.353
X12.94 Y-2.835 Z-0.42
X12.93 Y-2.798 Z-0.48
X12.918 Y-2.749 Z-0.531
X12.903 Y-2.691 Z-0.569
X12.886 Y-2.626 Z-0.592
X12.869 Y-2.558 Z-0.6
G3 X12.254 Y-0.923 I-7.85 J-2.021
G1 X12.209 Y-0.842 F50
X12.142 Y-0.674
X12.09 Y-0.507
X12.051 Y-0.339
X12.029 Y-0.172
X12.023 Y-0.005
X12.02 Y0.33
X12.019 Y1
Y3.679
X12.023 Y3.846
X12.033 Y4.181
X12.055 Y4.349
X12.091 Y4.516
X12.144 Y4.683
X12.173 Y4.757
X12.217 Y4.851
X12.306 Y5.018
X12.413 Y5.186
X12.456 Y5.244
X12.508 Y5.302
X12.675 Y5.477
X12.722 Y5.521
X12.934 Y5.688
X13.009 Y5.733
X13.176 Y5.828
X13.229 Y5.856
X13.343 Y5.904
X13.511 Y5.967
X13.702 Y6.023
X13.845 Y6.049
X14.012 Y6.069
X14.346 Y6.083
X14.438 Y6.085
G3 X14.668 Y6.194 Z-0.495 I-0.009 J0.317
G1 X14.71 Y6.234 Z-0.472
X14.758 Y6.266 Z-0.449
X14.811 Y6.288 Z-0.426
X14.867 Y6.301 Z-0.402
X14.873 Z-0.4
X15.119 Y6.333
X17.513 Y6.642
X17.567 Y6.645
X17.62 Y6.638
X17.672 Y6.622
X17.72 Y6.599
G3 X18.653 Y6.2 I1.833 J3.004
G1 X18.773 Y6.171 F20
X18.895 Y6.145
G3 X19.389 Y6.087 Z-0.6 I0.658 J3.457
G1 X19.529 Y6.086 F50
X19.863 Y6.071
X20.03 Y6.061
X20.226 Y6.023
X20.364 Y5.984
X20.456 Y5.953
Z3
X15.866 Y29.044
Z0.035
Z-0.282 F20
X15.86 Y29.049 Z-0.353
X15.841 Y29.063 Z-0.42
X15.811 Y29.086 Z-0.48
X15.772 Y29.117 Z-0.531
X15.724 Y29.154 Z-0.569
X15.671 Y29.195 Z-0.592
X15.615 Y29.238 Z-0.6
G3 X14.012 Y29.931 I-2.153 J-2.783
G1 X13.845 Y29.951 F50
X13.765 Y29.966
X13.678 Y29.984
X13.511 Y30.033
X13.343 Y30.093
X13.176 Y30.17
X13.009 Y30.266
X12.953 Y30.3
X12.842 Y30.381
X12.736 Y30.468
X12.675 Y30.523
X12.563 Y30.635
X12.508 Y30.696
X12.43 Y30.803
X12.317 Y30.97
X12.222 Y31.138
X12.173 Y31.243
X12.147 Y31.305
X12.095 Y31.472
X12.057 Y31.64
X12.031 Y31.807
X12.022 Y31.975
X12.019 Y32.142
Y38.002
X12.02 Y38.17
X12.023 Y38.429
Z3
X20.21 Y27.797
Z0.035
Z-0.282 F20
Y27.805 Z-0.353
X20.209 Y27.828 Z-0.42
Y27.866 Z-0.48
X20.208 Y27.916 Z-0.531
X20.206 Y27.976 Z-0.569
X20.205 Y28.044 Z-0.592
X20.203 Y28.114 Z-0.6
G3 X19.979 Y29.846 I-8.104 J-0.169
G1 X19.967 Y29.89 F50
X19.933 Y29.921
X19.889 Y29.931
G3 X19.601 Y29.616 I0.03 J-0.316
G1 Y29.615
X19.614 Y29.562 Z-0.595
X19.627 Y29.511 Z-0.58
X19.64 Y29.463 Z-0.557
X19.674 Y29.426 Z-0.52
X19.703 Y29.394 Z-0.473
X19.726 Y29.37 Z-0.418
X19.74 Y29.355 Z-0.358
X19.746 Y29.348 Z-0.295
Z-0.282
Z3
X-2.82 Y4.903
Z0.135
Z-0.183 F20
X-2.813 Y4.905 Z-0.253
X-2.79 Y4.912 Z-0.32
X-2.754 Y4.923 Z-0.38
X-2.706 Y4.938 Z-0.431
X-2.649 Y4.956 Z-0.469
X-2.585 Y4.976 Z-0.492
X-2.517 Y4.996 Z-0.5
G3 X-0.914 Y5.688 I-2.39 J7.745
G1 X-0.699 Y5.818 F50
X-0.532 Y5.897
X-0.364 Y5.959
X-0.272 Y5.987
G3 X-0.08 Y6.153 Z-0.395 I-0.093 J0.303
G1 X-0.049 Y6.204 Z-0.371
X-0.01 Y6.248 Z-0.347
X0.037 Y6.284 Z-0.324
X0.089 Y6.311 Z-0.3
X0.128 Y6.323
X0.167 Y6.331
X0.334 Y6.352
X3.977 Y6.808
X4.038 Y6.809
X4.098 Y6.8
X4.155 Y6.778
X4.207 Y6.747
G3 X5.098 Y6.263 I2.108 J2.818
G1 X5.215 Y6.222 F20
X5.334 Y6.185
G3 X5.821 Y6.081 Z-0.5 I0.98 J3.379
G1 X5.988 Y6.063 F50
X6.155 Y6.033
X6.203 Y6.023
X6.322 Y5.993
X6.489 Y5.938
X6.657 Y5.868
X6.684 Y5.856
X6.824 Y5.783
X6.991 Y5.682
X7.158 Y5.548
X7.191 Y5.521
X7.325 Y5.39
X7.506 Y5.186
X7.612 Y5.018
X7.66 Y4.941
X7.701 Y4.851
X7.774 Y4.683
X7.827 Y4.516
X7.863 Y4.349
X7.884 Y4.181
X7.894 Y3.846
X7.898 Y3.679
Y0.498
Y0.33
X7.895 Y0.071
Z3
X6.983 Y41.381
Z0.135
Z-0.183 F20
X6.985 Y41.373 Z-0.253
X6.99 Y41.35 Z-0.32
X6.999 Y41.314 Z-0.38
X7.012 Y41.265 Z-0.431
X7.026 Y41.206 Z-0.469
X7.042 Y41.141 Z-0.492
X7.059 Y41.073 Z-0.5
G3 X7.66 Y39.433 I7.867 J1.951
G1 X7.709 Y39.342 F50
X7.776 Y39.174
X7.827 Y39.007
X7.866 Y38.839
X7.888 Y38.672
X7.894 Y38.505
X7.898 Y38.17
Y37.5
Y32.142
X7.896 Y31.975
X7.886 Y31.807
X7.861 Y31.64
X7.827 Y31.485
X7.77 Y31.305
X7.695 Y31.138
X7.66 Y31.06
X7.605 Y30.97
X7.492 Y30.8
X7.325 Y30.606
X7.174 Y30.468
X6.991 Y30.32
X6.824 Y30.216
X6.657 Y30.132
X6.489 Y30.062
X6.322 Y30.007
G3 X6.133 Y29.837 Z-0.395 I0.099 J-0.302
G1 X6.103 Y29.786 Z-0.371
X6.065 Y29.741 Z-0.347
X6.019 Y29.704 Z-0.324
X5.967 Y29.676 Z-0.3
X5.923 Y29.661
X5.877 Y29.653
X5.722 Y29.637
X2.018 Y29.243
X1.961 Y29.242
X1.904 Y29.251
X1.85 Y29.271
X1.801 Y29.3
G3 X0.898 Y29.762 I-2.04 J-2.867
G1 X0.78 Y29.8 F20
X0.66 Y29.834
G3 X0.171 Y29.927 Z-0.5 I-0.899 J-3.402
G1 X0.137 Y29.93 F50
X-0.03 Y29.952
X-0.197 Y29.99
X-0.364 Y30.041
X-0.532 Y30.104
X-0.699 Y30.184
X-0.803 Y30.247
Z3
X13.017 Y-2.881
Z0.135
Z-0.183 F20
X13.015 Y-2.873 Z-0.253
X13.01 Y-2.85 Z-0.32
X13.001 Y-2.814 Z-0.38
X12.988 Y-2.765 Z-0.431
X12.974 Y-2.706 Z-0.469
X12.958 Y-2.641 Z-0.492
X12.941 Y-2.573 Z-0.5
G3 X12.34 Y-0.933 I-7.867 J-1.951
G1 X12.291 Y-0.842 F50
X12.224 Y-0.674
X12.173 Y-0.507
X12.134 Y-0.339
X12.112 Y-0.172
X12.106 Y-0.005
X12.102 Y0.33
Y1
Y3.679
X12.106 Y3.846
X12.116 Y4.181
X12.137 Y4.349
X12.173 Y4.516
X12.226 Y4.683
X12.299 Y4.851
X12.34 Y4.941
X12.388 Y5.018
X12.494 Y5.186
X12.675 Y5.39
X12.809 Y5.521
X12.842 Y5.548
X13.009 Y5.682
X13.176 Y5.783
X13.316 Y5.856
X13.343 Y5.868
X13.511 Y5.938
X13.678 Y5.993
G3 X13.867 Y6.163 Z-0.395 I-0.099 J0.302
G1 X13.897 Y6.214 Z-0.371
X13.935 Y6.259 Z-0.347
X13.981 Y6.296 Z-0.324
X14.033 Y6.324 Z-0.3
X14.077 Y6.339
X14.123 Y6.347
X14.278 Y6.363
X17.982 Y6.757
X18.039 Y6.758
X18.096 Y6.749
X18.15 Y6.729
X18.199 Y6.7
G3 X19.102 Y6.238 I2.04 J2.867
G1 X19.22 Y6.2 F20
X19.34 Y6.166
G3 X19.829 Y6.073 Z-0.5 I0.899 J3.402
G1 X19.863 Y6.07 F50
X20.03 Y6.048
X20.197 Y6.01
X20.364 Y5.959
X20.532 Y5.897
Z3
X22.922 Y32.097
Z0.135
Z-0.183 F20
X22.915 Y32.092 Z-0.253
X22.896 Y32.079 Z-0.32
X22.866 Y32.056 Z-0.38
X22.825 Y32.027 Z-0.431
X22.776 Y31.992 Z-0.469
X22.722 Y31.952 Z-0.492
X22.664 Y31.911 Z-0.5
G3 X21.367 Y30.742 I4.748 J-6.57
G1 X21.279 Y30.635 F50
X21.2 Y30.548
X21.033 Y30.404
X20.89 Y30.3
X20.866 Y30.285
X20.699 Y30.184
X20.532 Y30.104
X20.364 Y30.041
X20.197 Y29.99
X20.03 Y29.952
X19.863 Y29.93
G3 X19.645 Y29.798 Z-0.395 I0.042 J-0.315
G1 X19.607 Y29.753 Z-0.371
X19.561 Y29.716 Z-0.347
X19.509 Y29.688 Z-0.324
X19.453 Y29.67 Z-0.3
X19.429 Y29.666
X19.207 Y29.635
X16.027 Y29.193
X15.965 Y29.19
X15.904 Y29.2
X15.846 Y29.221
X15.793 Y29.253
G3 X14.902 Y29.737 I-2.108 J-2.818
G1 X14.785 Y29.778 F20
X14.666 Y29.815
G3 X14.179 Y29.919 Z-0.5 I-0.98 J-3.379
G1 X14.012 Y29.937 F50
X13.845 Y29.967
X13.678 Y30.007
X13.511 Y30.062
X13.342 Y30.133
X13.176 Y30.216
X13.009 Y30.32
X12.826 Y30.468
X12.675 Y30.606
X12.506 Y30.803
X12.395 Y30.97
X12.34 Y31.06
X12.305 Y31.138
X12.23 Y31.305
X12.173 Y31.485
X12.139 Y31.64
X12.114 Y31.807
X12.104 Y31.975
X12.102 Y32.142
Y38.002
Y38.17
X12.105 Y38.429
G3 X11.811 Y38.738 I-0.317 J-0.008
G1 X11.789 Y38.739 Z-0.499
X11.788
X11.734 Y38.725 Z-0.49
X11.683 Y38.712 Z-0.471
X11.636 Y38.7 Z-0.443
X11.601 Y38.67 Z-0.404
X11.572 Y38.645 Z-0.356
X11.551 Y38.627 Z-0.302
X11.538 Y38.616 Z-0.244
X11.534 Y38.612 Z-0.183
Z3
X3.979 Y6.986
Z0.235
Z-0.083 F20
X3.986 Y6.981 Z-0.153
X4.004 Y6.967 Z-0.22
X4.033 Y6.943 Z-0.28
X4.073 Y6.912 Z-0.331
X4.12 Y6.874 Z-0.369
X4.172 Y6.833 Z-0.392
X4.228 Y6.789 Z-0.4
G3 X5.821 Y6.073 I2.192 J2.752
G1 X5.988 Y6.051 F50
X6.12 Y6.023
X6.155 Y6.014
X6.322 Y5.968
X6.489 Y5.907
X6.603 Y5.856
X6.657 Y5.829
X6.824 Y5.734
X6.899 Y5.688
X6.991 Y5.623
X7.108 Y5.521
X7.158 Y5.475
X7.282 Y5.353
X7.423 Y5.186
X7.492 Y5.085
X7.66 Y4.756
X7.691 Y4.683
X7.744 Y4.516
X7.78 Y4.349
X7.802 Y4.181
X7.812 Y3.846
X7.816 Y3.679
Y0.498
X7.815 Y0.33
X7.812 Y0.071
Z3
X6.89 Y41.366
Z0.235
Z-0.083 F20
X6.892 Y41.358 Z-0.153
X6.898 Y41.335 Z-0.22
X6.908 Y41.299 Z-0.28
X6.92 Y41.25 Z-0.331
X6.935 Y41.192 Z-0.369
X6.952 Y41.127 Z-0.392
X6.969 Y41.058 Z-0.4
G3 X7.582 Y39.423 I7.852 J2.012
G1 X7.627 Y39.342 F50
X7.694 Y39.174
X7.745 Y39.007
X7.784 Y38.839
X7.806 Y38.672
X7.812 Y38.505
X7.815 Y38.17
X7.816 Y37.5
Y32.142
X7.813 Y31.975
X7.804 Y31.807
X7.778 Y31.64
X7.74 Y31.472
X7.688 Y31.305
X7.66 Y31.239
X7.613 Y31.138
X7.526 Y30.97
X7.492 Y30.916
X7.412 Y30.803
X7.325 Y30.695
X7.271 Y30.635
X7.158 Y30.522
X7.097 Y30.468
X6.991 Y30.379
X6.824 Y30.267
X6.657 Y30.173
X6.577 Y30.133
X6.489 Y30.091
X6.322 Y30.032
X6.155 Y29.985
G3 X5.959 Y29.823 Z-0.295 I0.087 J-0.305
G1 X5.927 Y29.773 Z-0.271
X5.887 Y29.73 Z-0.247
X5.84 Y29.695 Z-0.224
X5.786 Y29.669 Z-0.2
X5.752 Y29.658
X5.717 Y29.652
X5.542 Y29.629
X2.147 Y29.181
X2.085 Y29.179
X2.024 Y29.189
X1.966 Y29.211
X1.914 Y29.243
G3 X1.026 Y29.733 I-2.128 J-2.803
G1 X0.909 Y29.775 F20
X0.79 Y29.813
G3 X0.304 Y29.921 Z-0.4 I-1.004 J-3.372
G1 X0.137 Y29.94 F50
X-0.022 Y29.966
X-0.197 Y30.009
X-0.364 Y30.067
X-0.52 Y30.133
X-0.699 Y30.226
X-0.813 Y30.3
X-0.866 Y30.337
X-0.916 Y30.376
G3 X-1.406 Y30.029 I-0.185 J-0.258
G1 X-1.386 Y29.961 Z-0.392
X-1.368 Y29.897 Z-0.369
X-1.351 Y29.839 Z-0.331
X-1.337 Y29.791 Z-0.28
X-1.326 Y29.755 Z-0.22
X-1.32 Y29.732 Z-0.153
X-1.318 Y29.724 Z-0.083
Z3
X13.11 Y-2.866
Z0.235
Z-0.083 F20
X13.108 Y-2.858 Z-0.153
X13.102 Y-2.835 Z-0.22
X13.092 Y-2.799 Z-0.28
X13.08 Y-2.75 Z-0.331
X13.065 Y-2.692 Z-0.369
X13.048 Y-2.627 Z-0.392
X13.031 Y-2.558 Z-0.4
G3 X12.418 Y-0.923 I-7.852 J-2.012
G1 X12.373 Y-0.842 F50
X12.306 Y-0.674
X12.255 Y-0.507
X12.216 Y-0.339
X12.194 Y-0.172
X12.188 Y-0.005
X12.185 Y0.33
X12.184 Y1
Y3.679
X12.188 Y3.846
X12.198 Y4.181
X12.22 Y4.349
X12.256 Y4.516
X12.309 Y4.683
X12.34 Y4.756
X12.508 Y5.085
X12.577 Y5.186
X12.718 Y5.353
X12.842 Y5.475
X12.892 Y5.521
X13.009 Y5.623
X13.101 Y5.688
X13.176 Y5.734
X13.343 Y5.829
X13.397 Y5.856
X13.511 Y5.907
X13.678 Y5.968
X13.845 Y6.014
G3 X14.042 Y6.175 Z-0.295 I-0.085 J0.306
G1 X14.074 Y6.225 Z-0.271
X14.114 Y6.268 Z-0.247
X14.162 Y6.302 Z-0.224
X14.216 Y6.328 Z-0.2
X14.283 Y6.344
X14.46 Y6.368
X17.853 Y6.819
X17.914 Y6.821
X17.976 Y6.811
X18.034 Y6.79
X18.086 Y6.757
G3 X18.974 Y6.267 I2.128 J2.803
G1 X19.091 Y6.225 F20
X19.21 Y6.187
G3 X19.696 Y6.079 Z-0.4 I1.004 J3.372
G1 X19.863 Y6.06 F50
X20.03 Y6.032
X20.197 Y5.989
X20.364 Y5.931
X20.532 Y5.862
X20.699 Y5.775
X20.837 Y5.688
X20.866 Y5.669
X20.97 Y5.584
G3 X21.47 Y5.916 I0.192 J0.253
G1 X21.452 Y5.984 Z-0.392
X21.435 Y6.049 Z-0.369
X21.42 Y6.108 Z-0.331
X21.408 Y6.156 Z-0.28
X21.398 Y6.193 Z-0.22
X21.392 Y6.216 Z-0.153
X21.39 Y6.223 Z-0.083
Z3
X16.021 Y29.014
Z0.235
Z-0.083 F20
X16.014 Y29.019 Z-0.153
X15.996 Y29.033 Z-0.22
X15.967 Y29.057 Z-0.28
X15.927 Y29.088 Z-0.331
X15.88 Y29.126 Z-0.369
X15.828 Y29.167 Z-0.392
X15.772 Y29.211 Z-0.4
G3 X14.179 Y29.927 I-2.192 J-2.752
G1 X14.012 Y29.949 F50
X13.925 Y29.966
X13.845 Y29.985
X13.678 Y30.032
X13.511 Y30.091
X13.423 Y30.133
X13.343 Y30.173
X13.176 Y30.267
X13.009 Y30.379
X12.903 Y30.468
X12.842 Y30.522
X12.729 Y30.635
X12.675 Y30.695
X12.588 Y30.803
X12.508 Y30.916
X12.474 Y30.97
X12.387 Y31.138
X12.34 Y31.239
X12.312 Y31.305
X12.26 Y31.472
X12.222 Y31.64
X12.196 Y31.807
X12.187 Y31.975
X12.184 Y32.142
Y38.002
X12.185 Y38.17
X12.188 Y38.429
Z3
X-0.262 Y8.173
Z0.235
Z-0.083 F20
X-0.261 Y8.166 Z-0.153
X-0.26 Y8.142 Z-0.22
X-0.259 Y8.104 Z-0.28
X-0.257 Y8.054 Z-0.331
X-0.255 Y7.994 Z-0.369
X-0.252 Y7.927 Z-0.392
X-0.249 Y7.856 Z-0.4
G3 X0.006 Y6.129 I8.1 J0.314
G1 X0.018 Y6.087 F50
X0.052 Y6.059
X0.095 Y6.053
G3 X0.347 Y6.398 I-0.064 J0.311
G1 X0.328 Y6.449 Z-0.395
X0.31 Y6.498 Z-0.381
X0.292 Y6.545 Z-0.358
X0.255 Y6.577 Z-0.322
X0.224 Y6.604 Z-0.278
X0.199 Y6.626 Z-0.227
X0.183 Y6.64 Z-0.171
X0.174 Y6.648 Z-0.111
X0.173 Z-0.083
Z3
X-2.495 Y2.764
Z0.335
Z0.018 F20
X-2.49 Y2.771 Z-0.053
X-2.478 Y2.791 Z-0.12
X-2.458 Y2.823 Z-0.18
X-2.432 Y2.866 Z-0.231
X-2.4 Y2.917 Z-0.269
X-2.364 Y2.974 Z-0.292
X-2.327 Y3.034 Z-0.3
G3 X-1.571 Y4.608 I-6.887 J4.275
G1 X-1.548 Y4.683 F50
X-1.535 Y4.723
X-1.477 Y4.851
X-1.384 Y5.018
X-1.28 Y5.186
X-1.2 Y5.285
X-1.144 Y5.353
X-1.033 Y5.464
X-0.975 Y5.521
X-0.866 Y5.608
X-0.758 Y5.688
X-0.472 Y5.856
X-0.364 Y5.9
X-0.197 Y5.965
X0.014 Y6.023
X0.137 Y6.044
X0.304 Y6.069
G3 X0.52 Y6.204 Z-0.195 I-0.046 J0.314
G1 X0.558 Y6.249 Z-0.171
X0.603 Y6.287 Z-0.147
X0.655 Y6.315 Z-0.124
X0.711 Y6.334 Z-0.1
X0.741 Y6.339
X0.957 Y6.367
X3.621 Y6.713
X3.678 Y6.716
X3.734 Y6.708
X3.788 Y6.69
X3.838 Y6.663
G3 X4.755 Y6.229 I1.948 J2.93
G1 X4.874 Y6.195 F20
X4.994 Y6.165
G3 X5.486 Y6.087 Z-0.3 I0.791 J3.429
G1 X5.654 Y6.079 F50
X5.821 Y6.063
X5.988 Y6.035
X6.046 Y6.023
X6.155 Y5.992
X6.322 Y5.939
X6.489 Y5.871
X6.526 Y5.856
X6.657 Y5.787
X6.824 Y5.684
X6.991 Y5.557
X7.031 Y5.521
X7.158 Y5.399
X7.202 Y5.353
X7.325 Y5.205
X7.339 Y5.186
X7.447 Y5.018
X7.492 Y4.944
X7.536 Y4.851
X7.609 Y4.683
X7.662 Y4.516
X7.698 Y4.349
X7.719 Y4.181
X7.729 Y3.846
X7.733 Y3.679
Y0.498
Y0.33
X7.73 Y0.071
Z3
X6.984 Y41.44
Z0.335
Z0.018 F20
X6.985 Y41.432 Z-0.053
X6.988 Y41.409 Z-0.12
X6.994 Y41.371 Z-0.18
X7.002 Y41.322 Z-0.231
X7.012 Y41.262 Z-0.269
X7.022 Y41.196 Z-0.292
X7.034 Y41.126 Z-0.3
G3 X7.492 Y39.441 I8.005 J1.276
G1 X7.608 Y39.174 F50
X7.66 Y39.018
X7.701 Y38.839
X7.723 Y38.672
X7.729 Y38.505
X7.733 Y38.17
Y37.5
Y32.142
X7.731 Y31.975
X7.721 Y31.807
X7.696 Y31.64
X7.658 Y31.472
X7.605 Y31.305
X7.53 Y31.138
X7.492 Y31.055
X7.439 Y30.97
X7.331 Y30.803
X7.158 Y30.603
X7.02 Y30.468
X6.991 Y30.444
X6.795 Y30.3
X6.657 Y30.217
X6.502 Y30.133
X6.322 Y30.06
X6.155 Y30.005
X5.988 Y29.965
X5.821 Y29.937
X5.654 Y29.921
G3 X5.431 Y29.798 Z-0.195 I0.029 J-0.316
G1 X5.391 Y29.755 Z-0.171
X5.343 Y29.72 Z-0.147
X5.29 Y29.694 Z-0.124
X5.233 Y29.678 Z-0.1
X5.219 Y29.676
X4.987 Y29.647
X2.51 Y29.333
X2.456 Y29.331
X2.402 Y29.338
X2.35 Y29.355
X2.301 Y29.38
G3 X1.374 Y29.791 I-1.874 J-2.978
G1 X1.254 Y29.822 F20
X1.132 Y29.849
G3 X0.639 Y29.914 Z-0.3 I-0.706 J-3.447
G1 X0.471 Y29.918 F50
X0.304 Y29.931
X0.137 Y29.956
X0.08 Y29.966
X-0.03 Y29.991
X-0.197 Y30.042
X-0.364 Y30.096
X-0.448 Y30.133
X-0.532 Y30.178
X-0.699 Y30.272
X-0.741 Y30.3
X-0.964 Y30.468
X-1.033 Y30.533
X-1.128 Y30.635
G3 X-1.669 Y30.377 I-0.226 J-0.223
G1 X-1.661 Y30.307 Z-0.292
X-1.654 Y30.24 Z-0.269
X-1.647 Y30.18 Z-0.231
X-1.641 Y30.13 Z-0.18
X-1.637 Y30.092 Z-0.12
X-1.635 Y30.069 Z-0.053
X-1.634 Y30.061 Z0.018
Z3
X13.016 Y-2.94
Z0.335
Z0.018 F20
X13.015 Y-2.932 Z-0.053
X13.012 Y-2.909 Z-0.12
X13.006 Y-2.871 Z-0.18
X12.998 Y-2.822 Z-0.231
X12.988 Y-2.762 Z-0.269
X12.978 Y-2.696 Z-0.292
X12.966 Y-2.626 Z-0.3
G3 X12.508 Y-0.941 I-8.005 J-1.276
G1 X12.392 Y-0.674 F50
X12.34 Y-0.518
X12.299 Y-0.339
X12.277 Y-0.172
X12.271 Y-0.005
X12.267 Y0.33
Y1
Y3.679
X12.271 Y3.846
X12.281 Y4.181
X12.302 Y4.349
X12.338 Y4.516
X12.391 Y4.683
X12.464 Y4.851
X12.508 Y4.944
X12.553 Y5.018
X12.661 Y5.186
X12.675 Y5.205
X12.798 Y5.353
X12.842 Y5.399
X12.969 Y5.521
X13.009 Y5.557
X13.176 Y5.684
X13.343 Y5.787
X13.474 Y5.856
X13.511 Y5.871
X13.678 Y5.939
X13.845 Y5.992
X13.954 Y6.023
X14.012 Y6.035
X14.179 Y6.063
X14.346 Y6.079
G3 X14.569 Y6.202 Z-0.195 I-0.029 J0.316
G1 X14.609 Y6.245 Z-0.171
X14.657 Y6.28 Z-0.147
X14.71 Y6.306 Z-0.124
X14.767 Y6.322 Z-0.1
X14.781 Y6.324
X15.013 Y6.353
X17.49 Y6.667
X17.544 Y6.669
X17.598 Y6.662
X17.65 Y6.645
X17.699 Y6.62
G3 X18.626 Y6.209 I1.874 J2.978
G1 X18.746 Y6.178 F20
X18.868 Y6.151
G3 X19.361 Y6.086 Z-0.3 I0.706 J3.447
G1 X19.529 Y6.082 F50
X19.696 Y6.069
X19.863 Y6.044
X19.986 Y6.023
X20.197 Y5.965
X20.364 Y5.9
X20.472 Y5.856
X20.758 Y5.688
X20.866 Y5.608
X20.975 Y5.521
X21.094 Y5.403
G3 X21.624 Y5.685 I0.216 J0.233
G1 X21.613 Y5.755 Z-0.292
X21.603 Y5.821 Z-0.269
X21.593 Y5.88 Z-0.231
X21.586 Y5.93 Z-0.18
X21.58 Y5.968 Z-0.12
X21.576 Y5.991 Z-0.053
X21.575 Y5.999 Z0.018
Z3
X22.661 Y33.007
Z0.335
Z0.018 F20
X22.656 Y33.001 Z-0.053
X22.642 Y32.983 Z-0.12
X22.618 Y32.953 Z-0.18
X22.587 Y32.914 Z-0.231
X22.55 Y32.866 Z-0.269
X22.508 Y32.814 Z-0.292
X22.464 Y32.758 Z-0.3
G3 X21.535 Y31.28 I6.357 J-5.029
G1 X21.471 Y31.138 F50
X21.379 Y30.97
X21.272 Y30.803
X21.128 Y30.635
X21.033 Y30.533
X20.964 Y30.468
X20.741 Y30.3
X20.699 Y30.272
X20.532 Y30.178
X20.448 Y30.133
X20.364 Y30.096
X20.197 Y30.042
X20.03 Y29.991
X19.92 Y29.966
X19.863 Y29.956
X19.696 Y29.931
G3 X19.48 Y29.796 Z-0.195 I0.046 J-0.314
G1 X19.442 Y29.751 Z-0.171
X19.397 Y29.713 Z-0.147
X19.345 Y29.685 Z-0.124
X19.289 Y29.666 Z-0.1
X19.259 Y29.661
X19.043 Y29.633
X16.379 Y29.287
X16.322 Y29.284
X16.266 Y29.292
X16.212 Y29.31
X16.162 Y29.337
G3 X15.245 Y29.771 I-1.948 J-2.93
G1 X15.126 Y29.805 F20
X15.006 Y29.835
G3 X14.514 Y29.913 Z-0.3 I-0.791 J-3.429
G1 X14.346 Y29.921 F50
X14.179 Y29.937
X14.007 Y29.966
X13.845 Y30.005
X13.678 Y30.06
X13.498 Y30.133
X13.343 Y30.217
X13.205 Y30.3
X13.009 Y30.444
X12.98 Y30.468
X12.842 Y30.603
X12.669 Y30.803
X12.561 Y30.97
X12.508 Y31.055
X12.47 Y31.138
X12.395 Y31.305
X12.34 Y31.478
X12.304 Y31.64
X12.279 Y31.807
X12.269 Y31.975
X12.267 Y32.142
Y38.002
Y38.17
X12.27 Y38.429
G3 X11.976 Y38.738 I-0.317 J-0.008
G1 X11.954 Y38.739 Z-0.299
X11.953
X11.899 Y38.725 Z-0.29
X11.848 Y38.712 Z-0.271
X11.801 Y38.7 Z-0.243
X11.766 Y38.67 Z-0.204
X11.737 Y38.645 Z-0.156
X11.716 Y38.627 Z-0.102
X11.703 Y38.616 Z-0.044
X11.699 Y38.612 Z0.017
Z3
X-2.295 Y2.178
Z0.435
Z0.117 F20
X-2.291 Y2.185 Z0.047
X-2.278 Y2.204 Z-0.02
X-2.258 Y2.236 Z-0.08
X-2.231 Y2.279 Z-0.131
X-2.199 Y2.33 Z-0.169
X-2.163 Y2.386 Z-0.192
X-2.125 Y2.446 Z-0.2
G3 X-1.583 Y4.106 I-2.97 J1.888
G1 X-1.581 Y4.181 F50
X-1.56 Y4.349
X-1.535 Y4.481
X-1.471 Y4.683
X-1.4 Y4.851
X-1.367 Y4.917
X-1.312 Y5.018
X-1.2 Y5.191
X-1.033 Y5.38
X-0.892 Y5.521
X-0.699 Y5.675
X-0.532 Y5.774
X-0.364 Y5.856
X-0.197 Y5.925
X-0.03 Y5.977
X0.137 Y6.019
X0.304 Y6.052
X0.471 Y6.072
X0.639 Y6.08
X0.973 Y6.086
G3 X1.204 Y6.192 Z-0.095 I-0.005 J0.317
G1 X1.254 Y6.237 Z-0.068
X1.312 Y6.27 Z-0.041
X1.376 Y6.291 Z-0.014
X1.41 Y6.298 Z0
X1.653 Y6.349
X3.606 Y6.757
G2 X3.854 Y6.706 I0.065 J-0.311
G3 X4.759 Y6.247 I2.028 J2.876
G1 X4.877 Y6.209 F20
X4.997 Y6.176
G3 X5.486 Y6.085 Z-0.2 I0.885 J3.405
G1 X5.654 Y6.072 F50
X5.821 Y6.051
X5.988 Y6.017
X6.155 Y5.967
X6.322 Y5.906
X6.489 Y5.832
X6.657 Y5.734
X6.733 Y5.688
X6.824 Y5.618
X6.991 Y5.484
X7.257 Y5.186
X7.368 Y5.018
X7.456 Y4.851
X7.492 Y4.774
X7.526 Y4.683
X7.579 Y4.516
X7.615 Y4.349
X7.637 Y4.181
X7.647 Y3.846
X7.651 Y3.679
Y0.498
X7.65 Y0.33
X7.647 Y0.071
Z3
X6.724 Y41.366
Z0.435
Z0.117 F20
X6.726 Y41.358 Z0.047
X6.731 Y41.336 Z-0.02
X6.741 Y41.299 Z-0.08
X6.753 Y41.25 Z-0.131
X6.768 Y41.192 Z-0.169
X6.785 Y41.127 Z-0.192
X6.802 Y41.059 Z-0.2
G3 X7.415 Y39.423 I7.853 J2.008
G1 X7.459 Y39.342 F50
X7.492 Y39.27
X7.529 Y39.174
X7.58 Y39.007
X7.619 Y38.839
X7.641 Y38.672
X7.647 Y38.505
X7.65 Y38.17
X7.651 Y37.5
Y32.142
X7.648 Y31.975
X7.639 Y31.807
X7.613 Y31.64
X7.573 Y31.472
X7.492 Y31.238
X7.451 Y31.138
X7.357 Y30.97
X7.248 Y30.803
X7.052 Y30.576
X7.021 Y30.544
X6.991 Y30.516
X6.824 Y30.382
X6.714 Y30.3
X6.489 Y30.168
X6.322 Y30.091
X6.155 Y30.035
X5.988 Y29.983
X5.821 Y29.949
X5.654 Y29.928
G3 X5.436 Y29.797 Z-0.095 I0.041 J-0.315
G1 X5.397 Y29.752 Z-0.071
X5.351 Y29.715 Z-0.047
X5.299 Y29.688 Z-0.024
X5.242 Y29.67 Z0
X5.22 Y29.666
X4.996 Y29.636
X2.991 Y29.362
X2.937 Y29.359
X2.883 Y29.366
X2.831 Y29.381
X2.783 Y29.405
G3 X1.849 Y29.801 I-1.827 J-3.007
G1 X1.729 Y29.83 F20
X1.607 Y29.856
G3 X1.112 Y29.913 Z-0.2 I-0.65 J-3.458
G1 X0.973 Y29.914 F50
X0.639 Y29.92
X0.471 Y29.928
X0.304 Y29.948
X0.211 Y29.966
X0.137 Y29.981
X-0.03 Y30.023
X-0.197 Y30.075
X-0.339 Y30.133
X-0.364 Y30.144
X-0.532 Y30.226
X-0.699 Y30.325
X-0.878 Y30.468
X-0.956 Y30.53
X-0.978 Y30.551
X-0.997 Y30.572
X-1.2 Y30.809
X-1.302 Y30.97
X-1.338 Y31.03
G3 X-1.921 Y30.889 I-0.267 J-0.172
G1 X-1.928 Y30.819 Z-0.192
X-1.934 Y30.752 Z-0.169
X-1.94 Y30.692 Z-0.131
X-1.945 Y30.642 Z-0.08
X-1.949 Y30.604 Z-0.02
X-1.951 Y30.581 Z0.047
X-1.952 Y30.573 Z0.117
Z3
X13.276 Y-2.866
Z0.435
Z0.117 F20
X13.274 Y-2.858 Z0.047
X13.269 Y-2.836 Z-0.02
X13.259 Y-2.799 Z-0.08
X13.247 Y-2.75 Z-0.131
X13.232 Y-2.692 Z-0.169
X13.215 Y-2.627 Z-0.192
X13.198 Y-2.559 Z-0.2
G3 X12.585 Y-0.923 I-7.853 J-2.008
G1 X12.541 Y-0.842 F50
X12.508 Y-0.77
X12.471 Y-0.674
X12.42 Y-0.507
X12.381 Y-0.339
X12.359 Y-0.172
X12.353 Y-0.005
X12.35 Y0.33
X12.349 Y1
Y3.679
X12.353 Y3.846
X12.363 Y4.181
X12.385 Y4.349
X12.421 Y4.516
X12.474 Y4.683
X12.508 Y4.774
X12.544 Y4.851
X12.632 Y5.018
X12.743 Y5.186
X13.009 Y5.484
X13.176 Y5.618
X13.267 Y5.688
X13.343 Y5.734
X13.511 Y5.832
X13.678 Y5.906
X13.845 Y5.967
X14.012 Y6.017
X14.179 Y6.051
X14.346 Y6.072
G3 X14.564 Y6.203 Z-0.095 I-0.041 J0.315
G1 X14.603 Y6.248 Z-0.071
X14.649 Y6.285 Z-0.047
X14.701 Y6.312 Z-0.024
X14.758 Y6.33 Z0
X14.78 Y6.334
X15.004 Y6.364
X17.009 Y6.638
X17.063 Y6.641
X17.117 Y6.634
X17.169 Y6.619
X17.217 Y6.595
G3 X18.151 Y6.199 I1.827 J3.008
G1 X18.271 Y6.17 F20
X18.393 Y6.144
G3 X18.888 Y6.087 Z-0.2 I0.65 J3.458
G1 X19.027 Y6.086 F50
X19.361 Y6.08
X19.529 Y6.072
X19.696 Y6.052
X19.863 Y6.019
X20.03 Y5.977
X20.197 Y5.925
X20.365 Y5.856
X20.532 Y5.774
X20.699 Y5.675
X20.892 Y5.521
X21.033 Y5.38
X21.2 Y5.191
X21.312 Y5.018
X21.367 Y4.917
Z3
X22.507 Y33.544
Z0.435
Z0.117 F20
X22.502 Y33.538 Z0.047
X22.487 Y33.52 Z-0.02
X22.463 Y33.491 Z-0.08
X22.431 Y33.452 Z-0.131
X22.393 Y33.405 Z-0.169
X22.35 Y33.353 Z-0.192
X22.305 Y33.299 Z-0.2
G3 X21.569 Y31.715 I2.722 J-2.23
G1 X21.557 Y31.64 F50
X21.535 Y31.521
X21.463 Y31.305
X21.396 Y31.138
X21.367 Y31.079
X21.302 Y30.97
X21.2 Y30.809
X20.997 Y30.572
X20.978 Y30.551
X20.956 Y30.53
X20.866 Y30.458
X20.699 Y30.325
X20.532 Y30.226
X20.364 Y30.144
X20.339 Y30.133
X20.197 Y30.075
X20.03 Y30.023
X19.863 Y29.981
X19.789 Y29.966
X19.696 Y29.948
X19.529 Y29.928
X19.361 Y29.92
X19.027 Y29.914
G3 X18.796 Y29.808 Z-0.095 I0.005 J-0.317
G1 X18.746 Y29.763 Z-0.068
X18.688 Y29.73 Z-0.041
X18.624 Y29.709 Z-0.014
X18.59 Y29.702 Z0
X18.347 Y29.651
X16.394 Y29.243
G2 X16.146 Y29.294 I-0.065 J0.311
G3 X15.241 Y29.753 I-2.028 J-2.876
G1 X15.123 Y29.791 F20
X15.003 Y29.824
G3 X14.514 Y29.915 Z-0.2 I-0.885 J-3.405
G1 X14.346 Y29.928 F50
X14.179 Y29.949
X14.012 Y29.983
X13.845 Y30.035
X13.678 Y30.091
X13.511 Y30.168
X13.286 Y30.3
X13.176 Y30.382
X13.009 Y30.516
X12.979 Y30.544
X12.948 Y30.576
X12.752 Y30.803
X12.643 Y30.97
X12.549 Y31.138
X12.508 Y31.238
X12.427 Y31.472
X12.387 Y31.64
X12.361 Y31.807
X12.352 Y31.975
X12.349 Y32.142
Y38.002
X12.35 Y38.17
X12.353 Y38.429
G3 X12.058 Y38.738 I-0.317 J-0.008
G1 X12.036 Y38.739 Z-0.199
X12.035
X11.982 Y38.725 Z-0.19
X11.931 Y38.712 Z-0.171
X11.884 Y38.7 Z-0.143
X11.849 Y38.67 Z-0.104
X11.82 Y38.645 Z-0.056
X11.799 Y38.627 Z-0.002
X11.786 Y38.616 Z0.056
X11.781 Y38.612 Z0.117
Z3
X-0.859 Y-2.851
Z0.535
Z0.218 F20
X-0.86 Y-2.843 Z0.147
X-0.863 Y-2.82 Z0.08
X-0.868 Y-2.782 Z0.02
X-0.875 Y-2.733 Z-0.031
X-0.883 Y-2.673 Z-0.069
X-0.892 Y-2.606 Z-0.092
X-0.902 Y-2.536 Z-0.1
G3 X-1.323 Y-0.842 I-8.031 J-1.098
G1 X-1.417 Y-0.612 F50
X-1.422 Y-0.591
X-1.51 Y-0.13
X-1.515 Y0.33
Y0.833
Y3.679
X-1.511 Y3.846
X-1.5 Y4.234
X-1.475 Y4.349
X-1.439 Y4.516
X-1.391 Y4.683
X-1.367 Y4.74
X-1.315 Y4.851
X-1.223 Y5.018
X-1.113 Y5.186
X-0.967 Y5.353
X-0.866 Y5.45
X-0.787 Y5.521
X-0.699 Y5.589
X-0.558 Y5.688
X-0.532 Y5.704
X-0.364 Y5.794
X-0.24 Y5.856
X-0.197 Y5.875
X-0.03 Y5.936
X0.137 Y5.987
X0.277 Y6.023
X0.304 Y6.029
X0.471 Y6.055
X0.639 Y6.073
G3 X0.86 Y6.199 Z0.005 I-0.033 J0.316
G1 X0.899 Y6.242 Z0.029
X0.946 Y6.278 Z0.052
X0.998 Y6.305 Z0.076
X1.055 Y6.321 Z0.1
X1.056
X1.3 Y6.367
X3.624 Y6.809
G2 X3.874 Y6.751 I0.059 J-0.312
G3 X4.764 Y6.265 I2.115 J2.812
G1 X4.881 Y6.224 F20
X5 Y6.187
G3 X5.486 Y6.081 Z-0.1 I0.989 J3.377
G1 X5.654 Y6.063 F50
X5.821 Y6.035
X5.988 Y5.996
X6.155 Y5.939
X6.322 Y5.87
X6.489 Y5.788
X6.657 Y5.685
X6.824 Y5.559
X6.866 Y5.521
X6.991 Y5.402
X7.158 Y5.207
X7.174 Y5.186
X7.282 Y5.018
X7.325 Y4.949
X7.371 Y4.851
X7.446 Y4.683
X7.492 Y4.502
X7.553 Y4.234
X7.564 Y3.846
X7.568 Y3.679
Y0.498
Y0.33
X7.565 Y0.071
Z3
X6.672 Y41.362
Z0.535
Z0.218 F20
X6.674 Y41.354 Z0.147
X6.68 Y41.331 Z0.08
X6.689 Y41.294 Z0.02
X6.701 Y41.246 Z-0.031
X6.715 Y41.187 Z-0.069
X6.731 Y41.122 Z-0.092
X6.747 Y41.053 Z-0.1
G3 X7.341 Y39.411 I7.875 J1.92
G1 X7.378 Y39.342 F50
X7.446 Y39.174
X7.492 Y39.026
X7.536 Y38.839
X7.558 Y38.672
X7.564 Y38.505
X7.568 Y38.17
Y37.5
Y32.142
X7.566 Y31.975
X7.556 Y31.807
X7.531 Y31.64
X7.495 Y31.472
X7.435 Y31.305
X7.325 Y31.052
X7.275 Y30.97
X7.165 Y30.803
X6.991 Y30.598
X6.847 Y30.468
X6.824 Y30.448
X6.657 Y30.319
X6.489 Y30.212
X6.322 Y30.132
X6.155 Y30.06
X5.988 Y30.004
X5.821 Y29.965
X5.654 Y29.937
X5.486 Y29.919
X5.152 Y29.915
G3 X4.92 Y29.81 Z0.005 I0.004 J-0.317
G1 X4.871 Y29.766 Z0.032
X4.814 Y29.732 Z0.058
X4.751 Y29.712 Z0.085
X4.714 Y29.704 Z0.1
X4.471 Y29.652
X2.692 Y29.269
X2.626 Y29.262
X2.562 Y29.268
X2.502 Y29.287
X2.446 Y29.317
G3 X1.535 Y29.764 I-1.989 J-2.902
G1 X1.417 Y29.8 F20
X1.297 Y29.832
G3 X0.806 Y29.916 Z-0.1 I-0.84 J-3.417
G1 X0.639 Y29.927 F50
X0.471 Y29.945
X0.304 Y29.971
X0.137 Y30.013
X-0.03 Y30.062
X-0.214 Y30.133
X-0.364 Y30.204
X-0.533 Y30.3
X-0.699 Y30.41
X-0.866 Y30.549
X-0.957 Y30.635
X-1.101 Y30.803
X-1.2 Y30.945
X-1.217 Y30.97
X-1.305 Y31.138
X-1.377 Y31.305
X-1.442 Y31.472
X-1.477 Y31.64
X-1.503 Y31.807
X-1.513 Y31.975
X-1.515 Y32.142
Y38.002
Y38.17
X-1.512 Y38.471
Z3
X13.328 Y-2.862
Z0.535
Z0.218 F20
X13.326 Y-2.854 Z0.147
X13.32 Y-2.831 Z0.08
X13.311 Y-2.794 Z0.02
X13.299 Y-2.746 Z-0.031
X13.285 Y-2.687 Z-0.069
X13.269 Y-2.622 Z-0.092
X13.253 Y-2.553 Z-0.1
G3 X12.659 Y-0.911 I-7.875 J-1.92
G1 X12.622 Y-0.842 F50
X12.554 Y-0.674
X12.508 Y-0.526
X12.464 Y-0.339
X12.442 Y-0.172
X12.436 Y-0.005
X12.432 Y0.33
Y1
Y3.679
X12.436 Y3.846
X12.447 Y4.234
X12.511 Y4.516
X12.554 Y4.683
X12.629 Y4.851
X12.675 Y4.949
X12.718 Y5.018
X12.826 Y5.186
X12.842 Y5.207
X13.009 Y5.402
X13.134 Y5.521
X13.176 Y5.559
X13.343 Y5.685
X13.511 Y5.788
X13.678 Y5.87
X13.845 Y5.939
X14.012 Y5.996
X14.179 Y6.035
X14.346 Y6.063
X14.514 Y6.081
X14.848 Y6.085
G3 X15.08 Y6.19 Z0.005 I-0.004 J0.317
G1 X15.129 Y6.234 Z0.032
X15.186 Y6.268 Z0.058
X15.249 Y6.288 Z0.085
X15.286 Y6.296 Z0.1
X15.529 Y6.348
X17.308 Y6.731
X17.374 Y6.738
X17.438 Y6.732
X17.498 Y6.713
X17.554 Y6.683
G3 X18.465 Y6.236 I1.989 J2.902
G1 X18.583 Y6.2 F20
X18.703 Y6.168
G3 X19.194 Y6.084 Z-0.1 I0.84 J3.417
G1 X19.361 Y6.073 F50
X19.529 Y6.055
X19.696 Y6.029
X19.723 Y6.023
X19.863 Y5.987
X20.03 Y5.936
X20.197 Y5.875
X20.24 Y5.856
X20.364 Y5.794
X20.532 Y5.704
X20.558 Y5.688
X20.699 Y5.589
X20.787 Y5.521
X20.866 Y5.45
X20.967 Y5.353
X21.113 Y5.186
X21.223 Y5.018
X21.315 Y4.851
X21.367 Y4.74
X21.391 Y4.683
X21.439 Y4.516
X21.498 Y4.244
X21.5 Y4.234
X21.511 Y3.846
X21.515 Y3.679
Y0.498
Y0.33
X21.512 Y0.029
Z3
X21.186 Y41.161
Z0.535
Z0.218 F20
X21.187 Y41.153 Z0.147
Y41.129 Z0.08
X21.188 Y41.092 Z0.02
X21.189 Y41.041 Z-0.031
X21.19 Y40.981 Z-0.069
X21.192 Y40.914 Z-0.092
X21.193 Y40.843 Z-0.1
G3 X21.417 Y39.112 I8.104 J0.167
G1 X21.422 Y39.091 F50
X21.51 Y38.63
X21.515 Y38.17
Y37.667
Y32.142
X21.513 Y31.975
X21.503 Y31.807
X21.477 Y31.64
X21.442 Y31.472
X21.377 Y31.305
X21.305 Y31.138
X21.217 Y30.97
X21.2 Y30.945
X21.101 Y30.803
X20.957 Y30.635
X20.866 Y30.549
X20.699 Y30.41
X20.532 Y30.299
X20.364 Y30.204
X20.214 Y30.133
X20.03 Y30.062
X19.863 Y30.013
X19.696 Y29.971
X19.529 Y29.945
X19.361 Y29.927
G3 X19.14 Y29.801 Z0.005 I0.033 J-0.316
G1 X19.101 Y29.758 Z0.029
X19.054 Y29.722 Z0.052
X19.002 Y29.695 Z0.076
X18.945 Y29.679 Z0.1
X18.944
X18.7 Y29.633
X16.376 Y29.191
G2 X16.126 Y29.249 I-0.059 J0.312
G3 X15.236 Y29.735 I-2.115 J-2.812
G1 X15.119 Y29.776 F20
X15 Y29.813
G3 X14.514 Y29.919 Z-0.1 I-0.989 J-3.377
G1 X14.346 Y29.937 F50
X14.178 Y29.966
X14.012 Y30.004
X13.845 Y30.06
X13.675 Y30.133
X13.511 Y30.212
X13.343 Y30.319
X13.176 Y30.448
X13.153 Y30.468
X13.009 Y30.598
X12.835 Y30.803
X12.725 Y30.97
X12.675 Y31.052
X12.565 Y31.305
X12.505 Y31.472
X12.469 Y31.64
X12.444 Y31.807
X12.434 Y31.975
X12.432 Y32.142
Y38.002
Y38.17
X12.435 Y38.429
G3 X12.141 Y38.738 I-0.317 J-0.008
G1 X12.119 Y38.739 Z-0.099
X12.118
X12.064 Y38.725 Z-0.09
X12.013 Y38.712 Z-0.071
X11.966 Y38.7 Z-0.043
X11.931 Y38.67 Z-0.004
X11.902 Y38.645 Z0.044
X11.881 Y38.627 Z0.098
X11.868 Y38.616 Z0.156
X11.864 Y38.612 Z0.217
Z3
X-3.156 Y3.964
Z-1.365
Z-1.683 F20
X-3.149 Y3.969 Z-1.753
X-3.13 Y3.983 Z-1.82
X-3.1 Y4.005 Z-1.88
X-3.059 Y4.035 Z-1.931
X-3.01 Y4.07 Z-1.969
X-2.956 Y4.109 Z-1.992
X-2.899 Y4.151 Z-2
G3 X-1.605 Y5.323 I-4.764 J6.558
G1 X-1.535 Y5.408 F50
X-1.42 Y5.521
X-1.29 Y5.633
X-1.181 Y5.737
X-1.091 Y5.857
X-0.995 Y6.009
X-0.893 Y6.204
X-0.785 Y6.459
X-0.672 Y6.8
X-0.554 Y7.279
X-0.437 Y8.008
X-0.376 Y8.743
X-0.345 Y9.48
X-0.328 Y10.218
X-0.319 Y10.955
X-0.314 Y11.693
X-0.311 Y12.431
X-0.308 Y14.644
X-0.301 Y29.377
X-0.335 Y29.598
X-0.432 Y29.798
X-0.584 Y29.96
X-0.778 Y30.07
G3 X-1.148 Y29.597 I-0.103 J-0.3
G1 X-1.109 Y29.538 Z-1.992
X-1.073 Y29.481 Z-1.969
X-1.04 Y29.431 Z-1.931
X-1.013 Y29.389 Z-1.88
X-0.992 Y29.357 Z-1.82
X-0.98 Y29.337 Z-1.753
X-0.975 Y29.33 Z-1.683
Z3
X-2.317 Y5.253
Z-1.365
Z-1.683 F20
X-2.31 Y5.255 Z-1.753
X-2.286 Y5.259 Z-1.82
X-2.249 Y5.265 Z-1.88
X-2.2 Y5.274 Z-1.931
X-2.14 Y5.285 Z-1.969
X-2.074 Y5.296 Z-1.992
X-2.005 Y5.309 Z-2
G3 X-1.29 Y5.633 I-0.276 J1.558
G1 X-1.226 Y5.688 F50
X-1.033 Y5.812
X-0.947 Y5.856
X-0.866 Y5.894
X-0.699 Y5.963
X-0.56 Y6.02
X-0.435 Y6.102
X-0.318 Y6.197
X-0.211 Y6.302
X-0.092 Y6.438
X0.041 Y6.617
X0.164 Y6.815
X0.293 Y7.065
X0.429 Y7.389
X0.562 Y7.796
X0.697 Y8.36
X0.812 Y9.089
X0.876 Y9.824
X0.913 Y10.561
X0.934 Y11.299
X0.946 Y12.036
X0.953 Y12.774
X0.957 Y13.512
X0.961 Y14.988
X0.964 Y18.677
X0.968 Y28.268
X0.954 Y28.707
X0.918 Y29.024
X0.871 Y29.267
X0.841 Y29.372
X0.766 Y29.548
X0.648 Y29.699
X0.496 Y29.815
X0.319 Y29.888
X0.129 Y29.913
X0.041
G3 X-0.136 Y29.34 I0.011 J-0.317
G1 X-0.079 Y29.298 Z-1.992
X-0.025 Y29.258 Z-1.969
X0.024 Y29.223 Z-1.931
X0.064 Y29.193 Z-1.88
X0.094 Y29.17 Z-1.82
X0.113 Y29.156 Z-1.753
X0.12 Y29.152 Z-1.683
Z3
X-1.794 Y6.007
Z-1.365
Z-1.683 F20
X-1.786 Y6.005 Z-1.753
X-1.763 Y6 Z-1.82
X-1.726 Y5.992 Z-1.88
X-1.677 Y5.981 Z-1.931
X-1.618 Y5.968 Z-1.969
X-1.553 Y5.953 Z-1.992
X-1.484 Y5.938 Z-2
G3 X-0.699 Y5.963 I0.344 J1.545
G1 X-0.532 Y6.018 F50
X-0.364 Y6.052
X-0.197 Y6.074
X-0.105 Y6.081
X0.044 Y6.1
X0.189 Y6.138
X0.327 Y6.195
X0.459 Y6.267
X0.584 Y6.35
X0.718 Y6.458
X0.851 Y6.583
X0.992 Y6.739
X1.148 Y6.942
X1.291 Y7.164
X1.451 Y7.46
X1.604 Y7.81
X1.762 Y8.267
X1.911 Y8.844
X2.038 Y9.571
X2.115 Y10.304
X2.162 Y11.041
X2.19 Y11.778
X2.207 Y12.516
X2.218 Y13.253
X2.224 Y13.991
X2.227 Y14.729
X2.231 Y16.205
X2.234 Y19.894
X2.238 Y27.272
X2.229 Y28.009
X2.191 Y28.504
X2.135 Y28.856
X2.073 Y29.114
X1.997 Y29.343
X1.949 Y29.459
X1.836 Y29.644
X1.676 Y29.789
X1.48 Y29.881
X1.266 Y29.913
X0.129
G3 X-0.049 Y29.34 I0.011 J-0.317
G1 X0.008 Y29.298 Z-1.992
X0.062 Y29.258 Z-1.969
X0.111 Y29.222 Z-1.931
X0.151 Y29.193 Z-1.88
X0.182 Y29.17 Z-1.82
X0.201 Y29.156 Z-1.753
X0.207 Y29.152 Z-1.683
Z3
X-1.158 Y6.386
Z-1.365
Z-1.683 F20
X-1.151 Y6.383 Z-1.753
X-1.13 Y6.372 Z-1.82
X-1.096 Y6.355 Z-1.88
X-1.051 Y6.333 Z-1.931
X-0.997 Y6.306 Z-1.969
X-0.937 Y6.276 Z-1.992
X-0.873 Y6.245 Z-2
G3 X-0.105 Y6.081 I0.704 J1.418
G1 X-0.03 Y6.087 F50
X0.731 Y6.088
X0.88 Y6.095
X1.028 Y6.122
X1.171 Y6.166
X1.309 Y6.225
X1.444 Y6.296
X1.586 Y6.387
X1.739 Y6.504
X1.893 Y6.641
X2.065 Y6.823
X2.227 Y7.023
X2.411 Y7.293
X2.577 Y7.584
X2.764 Y7.983
X2.93 Y8.426
X3.101 Y9.026
X3.246 Y9.749
X3.34 Y10.481
X3.4 Y11.216
X3.439 Y11.953
X3.463 Y12.691
X3.478 Y13.428
X3.488 Y14.166
X3.494 Y14.904
X3.497 Y15.642
X3.501 Y17.117
X3.504 Y20.069
X3.507 Y25.971
X3.506 Y26.709
X3.495 Y27.447
X3.454 Y28.125
X3.383 Y28.618
X3.305 Y28.964
X3.223 Y29.228
X3.133 Y29.449
X3.107 Y29.503
X2.991 Y29.671
X2.833 Y29.802
X2.646 Y29.884
X2.444 Y29.913
X1.266
G3 X1.089 Y29.339 I0.011 J-0.317
G1 X1.146 Y29.297 Z-1.992
X1.2 Y29.258 Z-1.969
X1.249 Y29.222 Z-1.931
X1.289 Y29.192 Z-1.88
X1.32 Y29.17 Z-1.82
X1.338 Y29.156 Z-1.753
X1.345 Y29.151 Z-1.683
Z3
X-0.296 Y6.471
Z-1.365
Z-1.683 F20
X-0.289 Y6.467 Z-1.753
X-0.269 Y6.455 Z-1.82
X-0.236 Y6.436 Z-1.88
X-0.193 Y6.41 Z-1.931
X-0.141 Y6.379 Z-1.969
X-0.084 Y6.345 Z-1.992
X-0.023 Y6.309 Z-2
G3 X0.731 Y6.088 I0.809 J1.36
G1 X1.734 F50
X1.883 Y6.095
X2.031 Y6.119
X2.176 Y6.161
X2.315 Y6.215
X2.464 Y6.287
X2.612 Y6.375
X2.776 Y6.492
X2.947 Y6.635
X3.126 Y6.811
X3.309 Y7.023
X3.498 Y7.28
X3.692 Y7.596
X3.886 Y7.976
X4.077 Y8.437
X4.266 Y9.026
X4.435 Y9.745
X4.55 Y10.474
X4.627 Y11.207
X4.678 Y11.943
X4.712 Y12.68
X4.734 Y13.418
X4.748 Y14.156
X4.757 Y14.893
X4.763 Y15.631
X4.767 Y16.369
X4.771 Y17.845
X4.775 Y20.796
X4.777 Y25.223
X4.776 Y25.961
X4.77 Y26.698
X4.745 Y27.436
X4.682 Y28.137
X4.593 Y28.65
X4.505 Y28.997
X4.408 Y29.277
X4.314 Y29.493
X4.298 Y29.522
X4.182 Y29.683
X4.026 Y29.807
X3.843 Y29.886
X3.646 Y29.913
X2.444
G3 X2.267 Y29.339 I0.011 J-0.317
G1 X2.324 Y29.297 Z-1.992
X2.378 Y29.258 Z-1.969
X2.427 Y29.222 Z-1.931
X2.467 Y29.192 Z-1.88
X2.498 Y29.17 Z-1.82
X2.517 Y29.156 Z-1.753
X2.523 Y29.151 Z-1.683
Z3
X0.707 Y6.471
Z-1.365
Z-1.683 F20
X0.714 Y6.467 Z-1.753
X0.734 Y6.455 Z-1.82
X0.767 Y6.436 Z-1.88
X0.81 Y6.41 Z-1.931
X0.862 Y6.379 Z-1.969
X0.919 Y6.345 Z-1.992
X0.98 Y6.309 Z-2
G3 X1.734 Y6.088 I0.809 J1.36
G1 X2.812 F50
X2.962 Y6.095
X3.11 Y6.119
X3.254 Y6.159
X3.395 Y6.211
X3.551 Y6.285
X3.706 Y6.374
X3.88 Y6.494
X4.057 Y6.638
X4.248 Y6.821
X4.441 Y7.037
X4.646 Y7.309
X4.849 Y7.628
X5.065 Y8.036
X5.264 Y8.499
X5.466 Y9.099
X5.646 Y9.815
X5.772 Y10.542
X5.859 Y11.274
X5.92 Y12.01
X5.961 Y12.746
X5.989 Y13.484
X6.008 Y14.221
X6.02 Y14.959
X6.029 Y15.697
X6.034 Y16.435
X6.038 Y17.172
X6.042 Y18.648
X6.045 Y21.599
X6.046 Y24.55
Y25.288
X6.041 Y26.026
X6.026 Y26.764
X5.985 Y27.5
X5.905 Y28.192
X5.801 Y28.715
X5.705 Y29.056
X5.604 Y29.328
X5.53 Y29.485
X5.416 Y29.66
X5.257 Y29.797
X5.066 Y29.883
X4.859 Y29.913
X3.646
G3 X3.469 Y29.339 I0.011 J-0.317
G1 X3.526 Y29.297 Z-1.992
X3.58 Y29.258 Z-1.969
X3.628 Y29.222 Z-1.931
X3.669 Y29.192 Z-1.88
X3.699 Y29.17 Z-1.82
X3.718 Y29.156 Z-1.753
X3.725 Y29.151 Z-1.683
Z3
X1.785 Y6.471
Z-1.365
Z-1.683 F20
X1.792 Y6.467 Z-1.753
X1.812 Y6.455 Z-1.82
X1.845 Y6.436 Z-1.88
X1.888 Y6.41 Z-1.931
X1.94 Y6.379 Z-1.969
X1.997 Y6.345 Z-1.992
X2.058 Y6.309 Z-2
G3 X2.812 Y6.088 I0.809 J1.36
G1 X3.907 F50
X4.057 Y6.095
X4.205 Y6.116
X4.35 Y6.153
X4.492 Y6.202
X4.647 Y6.271
X4.81 Y6.36
X4.983 Y6.474
X5.173 Y6.621
X5.364 Y6.796
X5.57 Y7.018
X5.776 Y7.277
X5.996 Y7.607
X6.213 Y7.996
X6.429 Y8.47
X6.646 Y9.067
X6.841 Y9.778
X6.982 Y10.502
X7.083 Y11.233
X7.155 Y11.968
X7.205 Y12.704
X7.24 Y13.441
X7.264 Y14.178
X7.281 Y14.916
X7.292 Y15.654
X7.299 Y16.391
X7.305 Y17.129
X7.308 Y17.867
X7.312 Y19.343
X7.315 Y22.294
X7.316 Y24.507
X7.313 Y25.245
X7.305 Y25.983
X7.281 Y26.72
X7.231 Y27.456
X7.144 Y28.16
X7.033 Y28.701
X6.926 Y29.068
X6.827 Y29.328
X6.75 Y29.49
X6.635 Y29.663
X6.476 Y29.798
X6.287 Y29.883
X6.081 Y29.913
X4.859
G3 X4.682 Y29.339 I0.011 J-0.317
G1 X4.739 Y29.297 Z-1.992
X4.793 Y29.258 Z-1.969
X4.842 Y29.222 Z-1.931
X4.882 Y29.192 Z-1.88
X4.913 Y29.17 Z-1.82
X4.932 Y29.156 Z-1.753
X4.938 Y29.151 Z-1.683
Z3
X2.88 Y6.471
Z-1.365
Z-1.683 F20
X2.887 Y6.467 Z-1.753
X2.907 Y6.455 Z-1.82
X2.94 Y6.436 Z-1.88
X2.983 Y6.41 Z-1.931
X3.035 Y6.379 Z-1.969
X3.092 Y6.345 Z-1.992
X3.153 Y6.309 Z-2
G3 X3.907 Y6.088 I0.809 J1.36
G1 X5.077 F50
X5.227 Y6.095
X5.375 Y6.119
X5.52 Y6.158
X5.661 Y6.209
X5.826 Y6.284
X5.989 Y6.375
X6.176 Y6.499
X6.363 Y6.646
X6.57 Y6.838
X6.776 Y7.063
X7.002 Y7.353
X7.22 Y7.685
X7.462 Y8.127
X7.676 Y8.607
X7.899 Y9.235
X8.089 Y9.948
X8.229 Y10.673
X8.332 Y11.403
X8.406 Y12.138
X8.46 Y12.873
X8.498 Y13.61
X8.525 Y14.348
X8.544 Y15.085
X8.557 Y15.823
X8.566 Y16.561
X8.572 Y17.298
X8.576 Y18.036
X8.581 Y19.512
X8.584 Y21.725
X8.585 Y23.939
X8.583 Y24.676
X8.576 Y25.414
X8.557 Y26.152
X8.521 Y26.889
X8.457 Y27.624
X8.351 Y28.319
X8.238 Y28.801
X8.125 Y29.154
X8.026 Y29.394
X7.953 Y29.538
X7.813 Y29.728
X7.621 Y29.865
X7.395 Y29.935
X7.159 Y29.93
X6.991 Y29.918
X6.824 Y29.913
X6.081
G3 X5.904 Y29.339 I0.011 J-0.317
G1 X5.961 Y29.297 Z-1.992
X6.015 Y29.258 Z-1.969
X6.064 Y29.222 Z-1.931
X6.104 Y29.192 Z-1.88
X6.135 Y29.17 Z-1.82
X6.154 Y29.156 Z-1.753
X6.16 Y29.151 Z-1.683
Z3
X4.05 Y6.471
Z-1.365
Z-1.683 F20
X4.057 Y6.467 Z-1.753
X4.077 Y6.455 Z-1.82
X4.11 Y6.436 Z-1.88
X4.153 Y6.41 Z-1.931
X4.205 Y6.379 Z-1.969
X4.263 Y6.345 Z-1.992
X4.323 Y6.309 Z-2
G3 X5.077 Y6.088 I0.809 J1.36
G1 X6.247 F50
X6.397 Y6.095
X6.545 Y6.119
X6.69 Y6.158
X6.835 Y6.21
X6.998 Y6.284
X7.171 Y6.38
X7.353 Y6.502
X7.558 Y6.662
X7.759 Y6.849
X7.981 Y7.091
X8.2 Y7.371
X8.436 Y7.729
X8.672 Y8.158
X8.901 Y8.669
X9.134 Y9.323
X9.324 Y10.036
X9.467 Y10.76
X9.574 Y11.49
X9.653 Y12.224
X9.711 Y12.959
X9.753 Y13.696
X9.783 Y14.433
X9.805 Y15.171
X9.82 Y15.908
X9.831 Y16.646
X9.839 Y17.384
X9.844 Y18.122
X9.847 Y18.859
X9.852 Y20.335
X9.855 Y22.548
Y23.286
X9.853 Y24.024
X9.848 Y24.762
X9.835 Y25.5
X9.81 Y26.237
X9.765 Y26.973
X9.69 Y27.707
X9.578 Y28.378
X9.456 Y28.864
X9.34 Y29.209
X9.232 Y29.46
X9.123 Y29.666
X8.999 Y29.861
X8.887 Y30.009
X8.859 Y30.041
X8.707 Y30.171
X8.525 Y30.256
X8.328 Y30.289
X8.129 Y30.268
X7.943 Y30.195
X7.827 Y30.13
X7.66 Y30.056
X7.492 Y29.999
X7.354 Y29.966
X7.159 Y29.93
Z3
X5.221 Y6.471
Z-1.365
Z-1.683 F20
X5.227 Y6.467 Z-1.753
X5.248 Y6.455 Z-1.82
X5.28 Y6.436 Z-1.88
X5.323 Y6.41 Z-1.931
X5.375 Y6.379 Z-1.969
X5.433 Y6.345 Z-1.992
X5.494 Y6.309 Z-2
G3 X6.247 Y6.088 I0.809 J1.36
G1 X6.824 F50
X6.991 Y6.082
X7.158 Y6.07
X7.186 Y6.063
X7.333 Y6.034
X7.483 Y6.036
X7.632 Y6.055
X7.778 Y6.089
X7.934 Y6.14
X8.09 Y6.205
X8.271 Y6.299
X8.453 Y6.412
X8.656 Y6.563
X8.864 Y6.744
X9.09 Y6.976
X9.314 Y7.246
X9.563 Y7.6
X9.794 Y7.993
X10.044 Y8.509
X10.289 Y9.137
X10.5 Y9.844
X10.661 Y10.564
X10.783 Y11.292
X10.874 Y12.024
X10.942 Y12.758
X10.993 Y13.494
X11.031 Y14.231
X11.058 Y14.969
X11.078 Y15.706
X11.092 Y16.444
X11.102 Y17.182
X11.109 Y17.919
X11.114 Y18.657
X11.118 Y19.395
X11.122 Y20.871
X11.124 Y22.346
Y23.084
X11.121 Y23.822
X11.115 Y24.56
X11.101 Y25.297
X11.074 Y26.035
X11.029 Y26.771
X10.957 Y27.505
X10.845 Y28.235
X10.718 Y28.785
X10.574 Y29.239
X10.423 Y29.609
X10.287 Y29.878
X10.146 Y30.109
X10.018 Y30.284
X9.874 Y30.452
X9.745 Y30.58
X9.6 Y30.702
X9.458 Y30.804
X9.437 Y30.816
X9.243 Y30.898
X9.033 Y30.921
X8.825 Y30.884
X8.636 Y30.791
X8.481 Y30.647
G3 X8.815 Y30.149 I0.254 J-0.191
G1 X8.883 Y30.167 Z-1.992
X8.948 Y30.184 Z-1.969
X9.006 Y30.199 Z-1.931
X9.055 Y30.212 Z-1.88
X9.092 Y30.222 Z-1.82
X9.114 Y30.228 Z-1.753
X9.122 Y30.23 Z-1.683
Z3
X6.285 Y6.687
Z-1.365
Z-1.683 F20
X6.291 Y6.682 Z-1.753
X6.308 Y6.665 Z-1.82
X6.334 Y6.638 Z-1.88
X6.37 Y6.603 Z-1.931
X6.412 Y6.56 Z-1.969
X6.46 Y6.513 Z-1.992
X6.51 Y6.463 Z-2
G3 X7.186 Y6.063 I1.118 J1.12
G1 X7.66 Y5.943 F50
X7.827 Y5.866
X7.966 Y5.81
X8.112 Y5.776
X8.261 Y5.761
X8.411 Y5.764
X8.56 Y5.781
X8.717 Y5.814
X8.876 Y5.86
X9.059 Y5.931
X9.243 Y6.018
X9.455 Y6.142
X9.663 Y6.286
X9.895 Y6.476
X10.127 Y6.7
X10.378 Y6.984
X10.636 Y7.329
X10.891 Y7.733
X11.162 Y8.251
X11.421 Y8.861
X11.655 Y9.561
X11.835 Y10.276
X11.973 Y11.001
X12.08 Y11.731
X12.161 Y12.464
X12.223 Y13.199
X12.269 Y13.936
X12.304 Y14.673
X12.329 Y15.41
X12.348 Y16.148
X12.362 Y16.885
X12.372 Y17.623
X12.379 Y18.361
X12.384 Y19.099
X12.387 Y19.837
X12.392 Y21.312
X12.393 Y22.05
X12.392 Y22.788
X12.39 Y23.526
X12.383 Y24.263
X12.369 Y25.001
X12.343 Y25.738
X12.301 Y26.475
X12.235 Y27.21
X12.138 Y27.941
X11.996 Y28.662
X11.839 Y29.214
X11.664 Y29.685
X11.484 Y30.071
X11.297 Y30.399
X11.098 Y30.692
X10.913 Y30.923
X10.733 Y31.112
X10.564 Y31.265
X10.408 Y31.383
X10.235 Y31.495
X10.082 Y31.576
X9.927 Y31.644
X9.762 Y31.701
X9.723 Y31.711
X9.512 Y31.733
X9.304 Y31.695
X9.114 Y31.6
X8.96 Y31.455
X8.853 Y31.272
X8.83 Y31.215
X8.796 Y31.138
X8.711 Y30.97
X8.663 Y30.889
X8.607 Y30.803
X8.481 Y30.647
G3 X8.815 Y30.149 I0.254 J-0.191
G1 X8.883 Y30.167 Z-1.992
X8.948 Y30.184 Z-1.969
X9.006 Y30.199 Z-1.931
X9.055 Y30.212 Z-1.88
X9.092 Y30.222 Z-1.82
X9.114 Y30.228 Z-1.753
X9.122 Y30.23 Z-1.683
Z3
X7.055 Y6.644
Z-1.365
Z-1.683 F20
X7.06 Y6.638 Z-1.753
X7.073 Y6.618 Z-1.82
X7.095 Y6.587 Z-1.88
X7.123 Y6.546 Z-1.931
X7.157 Y6.496 Z-1.969
X7.195 Y6.441 Z-1.992
X7.235 Y6.383 Z-2
G3 X7.827 Y5.866 I1.304 J0.896
G1 X7.85 Y5.856 F50
X7.994 Y5.778
X8.127 Y5.688
X8.286 Y5.549
X8.404 Y5.455
X8.537 Y5.385
X8.678 Y5.336
X8.825 Y5.304
X8.974 Y5.288
X9.124 Y5.287
X9.281 Y5.298
X9.452 Y5.324
X9.639 Y5.368
X9.834 Y5.431
X10.053 Y5.522
X10.271 Y5.634
X10.52 Y5.788
X10.762 Y5.966
X11.027 Y6.196
X11.305 Y6.479
X11.579 Y6.807
X11.877 Y7.23
X12.163 Y7.712
X12.44 Y8.279
X12.71 Y8.966
X12.925 Y9.672
X13.096 Y10.389
X13.23 Y11.115
X13.336 Y11.845
X13.417 Y12.578
X13.48 Y13.313
X13.528 Y14.05
X13.565 Y14.787
X13.592 Y15.524
X13.612 Y16.261
X13.627 Y16.999
X13.638 Y17.737
X13.646 Y18.475
X13.652 Y19.212
X13.656 Y19.95
X13.659 Y20.688
X13.661 Y21.426
Y22.164
X13.66 Y22.901
X13.655 Y23.639
X13.644 Y24.377
X13.625 Y25.115
X13.594 Y25.852
X13.545 Y26.588
X13.473 Y27.322
X13.368 Y28.053
X13.221 Y28.775
X13.041 Y29.407
X12.991 Y29.542
X12.88 Y29.743
X12.713 Y29.901
X12.508 Y30.003
X12.34 Y30.056
X12.173 Y30.134
X12.006 Y30.227
X11.892 Y30.3
X11.839 Y30.338
X11.685 Y30.468
X11.672 Y30.481
X11.529 Y30.635
X11.393 Y30.803
X11.337 Y30.889
X11.289 Y30.97
X11.204 Y31.138
X11.17 Y31.215
X11.133 Y31.305
X11.106 Y31.397
X11.056 Y31.539
X10.988 Y31.672
X10.907 Y31.799
X10.815 Y31.917
X10.714 Y32.028
X10.602 Y32.128
X10.482 Y32.218
X10.355 Y32.298
X10.221 Y32.364
X10.081 Y32.419
X9.937 Y32.46
X9.789 Y32.487
X9.765 Y32.489
X9.534 Y32.473
X9.32 Y32.384
X9.144 Y32.233
X9.026 Y32.034
X8.976 Y31.807
X8.952 Y31.64
X8.917 Y31.472
X8.867 Y31.305
X8.853 Y31.272
G3 X9.042 Y30.865 Z-1.8 I0.298 J-0.109
G1 X9.11 Y30.848
X9.181 Y30.847
X9.287 Y30.857
X10.633 Y30.982
X10.828 Y31.001 F20
X10.879 Y31.01
G3 X11.106 Y31.397 Z-2 I-0.08 J0.307
G1 X11.083 Y31.472 F50
X11.044 Y31.64
X11.021 Y31.807
X11.013 Y31.975
Y32.067
X11.005 Y32.217
X10.965 Y32.361
X10.904 Y32.498
X10.825 Y32.626
X10.732 Y32.744
X10.627 Y32.85
X10.51 Y32.944
X10.383 Y33.025
X10.249 Y33.093
X10.109 Y33.145
X9.963 Y33.182
X9.815 Y33.204
X9.755 Y33.206
X9.52 Y33.177
X9.306 Y33.075
X9.135 Y32.91
X9.025 Y32.7
X8.988 Y32.466
Y32.142
X8.985 Y31.975
X8.976 Y31.807
G3 X9.287 Y31.483 Z-1.8 I0.317 J-0.006
G1 X9.355 Y31.489
X9.531 Y31.524
X10.444 Y31.703
X10.687 Y31.751 F20
X10.757 Y31.765 Z-1.828
G3 X11.013 Y32.067 Z-2 I-0.061 J0.312
G1 X11.012 Y32.778 F50
X11.005 Y32.928
X10.97 Y33.074
X10.913 Y33.212
X10.836 Y33.341
X10.744 Y33.459
X10.638 Y33.566
X10.522 Y33.66
X10.395 Y33.74
X10.26 Y33.807
X10.12 Y33.859
X9.974 Y33.895
X9.826 Y33.916
X9.676 Y33.921
X9.671
X9.456 Y33.871
X9.265 Y33.761
X9.116 Y33.599
X9.02 Y33.4
X8.988 Y33.182
Y32.466
G3 X9.316 Y32.16 Z-1.8 I0.317 J0.011
G1 X9.374 Y32.167
X9.559 Y32.209
X10.443 Y32.407
X10.686 Y32.462 F20
X10.765 Y32.479 Z-1.832
G3 X11.012 Y32.778 Z-2 I-0.07 J0.31
G1 Y33.482 F50
X11.005 Y33.631
X10.973 Y33.778
X10.918 Y33.917
X10.842 Y34.047
X10.751 Y34.166
X10.646 Y34.274
X10.531 Y34.369
X10.405 Y34.451
X10.271 Y34.518
X10.131 Y34.572
X9.986 Y34.609
X9.837 Y34.631
X9.687 Y34.638
X9.681 Y34.637
X9.463 Y34.59
X9.27 Y34.48
X9.118 Y34.318
X9.021 Y34.118
X8.988 Y33.898
Y33.182
G3 X9.316 Y32.876 Z-1.8 I0.317 J0.011
G1 X9.372 Y32.883
X9.559 Y32.923
X10.443 Y33.114
X10.686 Y33.166 F20
X10.762 Y33.182 Z-1.831
G3 X11.012 Y33.482 Z-2 I-0.067 J0.31
G1 Y34.243 F50
X11.005 Y34.393
X10.965 Y34.538
X10.903 Y34.674
X10.823 Y34.801
X10.727 Y34.916
X10.618 Y35.02
X10.5 Y35.112
X10.371 Y35.189
X10.235 Y35.253
X10.093 Y35.302
X9.947 Y35.334
X9.798 Y35.352
X9.74 Y35.353
X9.509 Y35.32
X9.299 Y35.216
X9.132 Y35.052
X9.025 Y34.844
X8.988 Y34.612
Y33.898
G3 X9.316 Y33.592 Z-1.8 I0.317 J0.011
G1 X9.381 Y33.601
X9.558 Y33.645
X10.445 Y33.865
X10.686 Y33.925 F20
X10.772 Y33.946 Z-1.835
G3 X11.012 Y34.243 Z-2 I-0.077 J0.308
G1 Y34.913 F50
X11.005 Y35.063
X10.974 Y35.21
X10.919 Y35.349
X10.844 Y35.479
X10.753 Y35.598
X10.649 Y35.706
X10.533 Y35.801
X10.406 Y35.882
X10.272 Y35.95
X10.132 Y36.003
X9.987 Y36.04
X9.838 Y36.062
X9.689 Y36.069
X9.677 Y36.068
X9.461 Y36.02
X9.268 Y35.91
X9.117 Y35.748
X9.021 Y35.548
X8.988 Y35.329
Y34.612
G3 X9.316 Y34.306 Z-1.8 I0.317 J0.011
G1 X9.372 Y34.313
X9.559 Y34.354
X10.443 Y34.545
X10.686 Y34.597 F20
X10.762 Y34.614 Z-1.831
G3 X11.012 Y34.913 Z-2 I-0.067 J0.31
G1 Y35.658 F50
X11.005 Y35.808
X10.968 Y35.954
X10.909 Y36.091
X10.83 Y36.219
X10.736 Y36.336
X10.629 Y36.441
X10.511 Y36.534
X10.383 Y36.613
X10.248 Y36.677
X10.107 Y36.728
X9.961 Y36.762
X9.812 Y36.781
X9.748 Y36.783
X9.515 Y36.752
X9.303 Y36.649
X9.134 Y36.485
X9.025 Y36.275
X8.988 Y36.043
Y35.329
G3 X9.316 Y35.023 Z-1.8 I0.317 J0.011
G1 X9.378 Y35.031
X9.558 Y35.074
X10.444 Y35.284
X10.686 Y35.341 F20
X10.768 Y35.36 Z-1.834
G3 X11.012 Y35.658 Z-2 I-0.073 J0.309
G1 Y36.379 F50
X11.005 Y36.528
X10.978 Y36.676
X10.927 Y36.817
X10.856 Y36.949
X10.768 Y37.071
X10.667 Y37.181
X10.553 Y37.279
X10.429 Y37.364
X10.298 Y37.436
X10.159 Y37.493
X10.015 Y37.534
X9.867 Y37.561
X9.718 Y37.574
X9.707 Y37.573
X9.483 Y37.532
X9.282 Y37.424
X9.124 Y37.261
X9.022 Y37.058
X8.988 Y36.833
Y36.043
G3 X9.316 Y35.736 Z-1.8 I0.317 J0.011
G1 X9.379 Y35.745
X9.558 Y35.788
X10.445 Y36.003
X10.686 Y36.061 F20
X10.77 Y36.081 Z-1.835
G3 X11.012 Y36.379 Z-2 I-0.075 J0.309
G1 Y38.002 F50
X11.013 Y38.17
X11.016 Y38.429
G3 X10.904 Y38.663 Z-1.893 I-0.317 J-0.008
G1 X10.727 Y38.813 Z-1.8
X10.538 Y38.974
X8.676 Y40.554
X8.628 Y40.588
X8.575 Y40.612
X8.518 Y40.626
X8.46 Y40.63
X8.399 Y40.622 F20
X8.34 Y40.602
X8.286 Y40.571
X8.24 Y40.53
G3 X8.253 Y40.081 Z-2 I0.231 J-0.218
G1 X8.332 Y40.011 F50
X8.495 Y39.841
X8.624 Y39.677
X8.663 Y39.618
X8.722 Y39.509
X8.808 Y39.342
X8.872 Y39.174
X8.921 Y39.007
X8.957 Y38.839
X8.978 Y38.672
X8.984 Y38.505
X8.987 Y38.17
X8.988 Y37.5
Y36.833
G3 X9.561 Y36.656 I0.317 J0.011
G1 X9.603 Y36.713 Z-1.992
X9.642 Y36.767 Z-1.969
X9.678 Y36.816 Z-1.931
X9.708 Y36.856 Z-1.88
X9.73 Y36.887 Z-1.82
X9.744 Y36.906 Z-1.753
X9.749 Y36.912 Z-1.683
Z3
X23.115 Y32.004
Z-1.365
Z-1.683 F20
X23.108 Y31.999 Z-1.753
X23.09 Y31.985 Z-1.82
X23.059 Y31.963 Z-1.88
X23.019 Y31.933 Z-1.931
X22.97 Y31.897 Z-1.969
X22.916 Y31.857 Z-1.992
X22.859 Y31.815 Z-2
G3 X21.572 Y30.635 I4.802 J-6.53
G1 X21.535 Y30.59 F50
X21.408 Y30.468
X21.367 Y30.432
X21.318 Y30.392
X21.207 Y30.292
X21.112 Y30.176
X21.019 Y30.038
X20.92 Y29.861
X20.814 Y29.633
X20.703 Y29.331
X20.587 Y28.916
X20.468 Y28.299
X20.386 Y27.566
X20.343 Y26.83
X20.321 Y26.092
X20.309 Y25.354
X20.303 Y24.617
X20.3 Y23.879
X20.298 Y22.403
X20.297 Y16.501
Y6.625
X20.329 Y6.409
X20.422 Y6.212
X20.569 Y6.051
X20.756 Y5.939
G3 X21.138 Y6.402 I0.11 J0.298
G1 X21.101 Y6.463 Z-1.992
X21.066 Y6.52 Z-1.969
X21.035 Y6.571 Z-1.931
X21.008 Y6.614 Z-1.88
X20.989 Y6.647 Z-1.82
X20.976 Y6.667 Z-1.753
X20.972 Y6.673 Z-1.683
Z3
X22.357 Y30.741
Z-1.365
Z-1.683 F20
X22.349 Y30.74 Z-1.753
X22.326 Y30.737 Z-1.82
X22.289 Y30.731 Z-1.88
X22.239 Y30.724 Z-1.931
X22.179 Y30.715 Z-1.969
X22.113 Y30.706 Z-1.992
X22.043 Y30.695 Z-2
G3 X21.318 Y30.392 I0.229 J-1.566
G1 X21.205 Y30.3 F50
X21.033 Y30.189
X20.927 Y30.133
X20.866 Y30.103
X20.699 Y30.04
X20.559 Y29.984
X20.433 Y29.903
X20.316 Y29.809
X20.201 Y29.698
X20.077 Y29.557
X19.961 Y29.401
X19.833 Y29.197
X19.697 Y28.936
X19.567 Y28.63
X19.43 Y28.215
X19.295 Y27.659
X19.178 Y26.931
X19.112 Y26.196
X19.075 Y25.459
X19.054 Y24.721
X19.042 Y23.984
X19.035 Y23.246
X19.031 Y22.508
X19.028 Y21.032
X19.027 Y17.343
Y7.752
X19.041 Y7.305
X19.076 Y6.985
X19.123 Y6.743
X19.155 Y6.629
X19.23 Y6.453
X19.347 Y6.301
X19.5 Y6.185
X19.677 Y6.112
X19.868 Y6.087
X19.957
G3 X20.134 Y6.66 I-0.011 J0.317
G1 X20.077 Y6.702 Z-1.992
X20.023 Y6.742 Z-1.969
X19.975 Y6.777 Z-1.931
X19.934 Y6.807 Z-1.88
X19.904 Y6.83 Z-1.82
X19.885 Y6.844 Z-1.753
X19.878 Y6.848 Z-1.683
Z3
X21.794 Y30.009
Z-1.365
Z-1.683 F20
X21.786 Y30.011 Z-1.753
X21.763 Y30.015 Z-1.82
X21.726 Y30.023 Z-1.88
X21.677 Y30.034 Z-1.931
X21.618 Y30.046 Z-1.969
X21.553 Y30.06 Z-1.992
X21.483 Y30.074 Z-2
G3 X20.699 Y30.04 I-0.325 J-1.549
G1 X20.532 Y29.982 F50
X20.364 Y29.948
X20.197 Y29.926
X20.105 Y29.919
X19.956 Y29.9
X19.811 Y29.863
X19.672 Y29.808
X19.539 Y29.737
X19.414 Y29.655
X19.28 Y29.549
X19.148 Y29.425
X19.006 Y29.271
X18.851 Y29.071
X18.708 Y28.852
X18.547 Y28.559
X18.394 Y28.214
X18.236 Y27.767
X18.087 Y27.204
X17.956 Y26.477
X17.876 Y25.744
X17.828 Y25.008
X17.799 Y24.271
X17.782 Y23.533
X17.771 Y22.795
X17.765 Y22.057
X17.762 Y21.32
X17.758 Y19.844
X17.757 Y16.155
Y8.777
X17.765 Y8.039
X17.802 Y7.522
X17.857 Y7.161
X17.919 Y6.902
X17.994 Y6.669
X18.046 Y6.544
X18.158 Y6.358
X18.319 Y6.212
X18.515 Y6.119
X18.73 Y6.088
X19.868 Y6.087
G3 X20.045 Y6.66 I-0.011 J0.317
G1 X19.988 Y6.702 Z-1.992
X19.934 Y6.742 Z-1.969
X19.885 Y6.778 Z-1.931
X19.845 Y6.807 Z-1.88
X19.815 Y6.83 Z-1.82
X19.796 Y6.844 Z-1.753
X19.789 Y6.848 Z-1.683
Z3
X21.158 Y29.614
Z-1.365
Z-1.683 F20
X21.151 Y29.617 Z-1.753
X21.13 Y29.628 Z-1.82
X21.096 Y29.645 Z-1.88
X21.051 Y29.667 Z-1.931
X20.997 Y29.694 Z-1.969
X20.937 Y29.724 Z-1.992
X20.873 Y29.755 Z-2
G3 X20.105 Y29.919 I-0.704 J-1.418
G1 X20.03 Y29.913 F50
X19.269
X19.12 Y29.905
X18.97 Y29.891
X18.824 Y29.857
X18.682 Y29.808
X18.546 Y29.746
X18.415 Y29.672
X18.29 Y29.589
X18.171 Y29.498
X18.058 Y29.399
X17.951 Y29.294
X17.849 Y29.184
X17.753 Y29.069
X17.662 Y28.95
X17.577 Y28.826
X17.495 Y28.7
X17.419 Y28.571
X17.347 Y28.439
X17.28 Y28.305
X17.217 Y28.169
X17.157 Y28.032
X17.101 Y27.893
X17.048 Y27.752
X16.999 Y27.61
X16.954 Y27.468
X16.911 Y27.324
X16.871 Y27.179
X16.833 Y27.034
X16.799 Y26.888
X16.767 Y26.742
X16.737 Y26.595
X16.709 Y26.447
X16.683 Y26.3
X16.659 Y26.151
X16.636 Y26.003
X16.616 Y25.855
X16.597 Y25.706
X16.579 Y25.557
X16.562 Y25.408
X16.547 Y25.258
X16.532 Y25.098
X16.519 Y24.94
X16.505 Y24.765
X16.49 Y24.566
X16.476 Y24.342
X16.463 Y24.107
X16.449 Y23.829
X16.435 Y23.504
X16.422 Y23.122
X16.408 Y22.638
X16.395 Y21.988
X16.386 Y21.25
X16.38 Y20.513
X16.377 Y19.775
X16.374 Y18.299
X16.373 Y14.61
Y9.814
X16.374 Y9.41
X16.376 Y9.224
X16.38 Y9.012
X16.384 Y8.862
X16.389 Y8.712
X16.396 Y8.562
X16.404 Y8.412
X16.414 Y8.263
X16.426 Y8.113
X16.441 Y7.964
X16.458 Y7.815
X16.478 Y7.666
X16.501 Y7.518
X16.528 Y7.37
X16.559 Y7.224
X16.594 Y7.078
X16.634 Y6.933
X16.679 Y6.79
X16.731 Y6.649
X16.791 Y6.507
X16.906 Y6.335
X17.065 Y6.201
X17.254 Y6.116
X17.459 Y6.088
X18.73
G3 X18.907 Y6.661 I-0.011 J0.317
G1 X18.85 Y6.703 Z-1.992
X18.796 Y6.742 Z-1.969
X18.747 Y6.778 Z-1.931
X18.707 Y6.808 Z-1.88
X18.676 Y6.83 Z-1.82
X18.657 Y6.844 Z-1.753
X18.651 Y6.849 Z-1.683
Z3
X20.296 Y29.529
Z-1.365
Z-1.683 F20
X20.289 Y29.533 Z-1.753
X20.269 Y29.545 Z-1.82
X20.236 Y29.564 Z-1.88
X20.193 Y29.59 Z-1.931
X20.141 Y29.621 Z-1.969
X20.084 Y29.655 Z-1.992
X20.023 Y29.691 Z-2
G3 X19.269 Y29.913 I-0.809 J-1.36
G1 X18.191 F50
X18.041 Y29.905
X17.893 Y29.883
X17.748 Y29.843
X17.608 Y29.79
X17.466 Y29.723
X17.315 Y29.635
X17.156 Y29.524
X16.987 Y29.385
X16.81 Y29.215
X16.628 Y29.009
X16.534 Y28.883
X16.487 Y28.814
X16.439 Y28.742
X16.25 Y28.442
X16.057 Y28.075
X16.02 Y27.99
X15.985 Y27.905
G3 X16.173 Y27.497 Z-1.8 I0.298 J-0.11
X16.502 Y27.564 I0.11 J0.298
G1 X18.398 Y29.364
X18.399 Y29.365 F20
X18.439 Y29.411
X18.47 Y29.465
X18.489 Y29.523
X18.497 Y29.584
G3 X18.191 Y29.913 Z-2 I-0.317 J0.011
G1 X17.096 F50
X16.946 Y29.905
X16.799 Y29.88
X16.654 Y29.84
X16.514 Y29.786
X16.357 Y29.71
X16.198 Y29.617
X16.02 Y29.566
X15.836 Y29.561
X15.476 Y29.641
X15.066 Y29.839
X14.963 Y29.879
X14.855 Y29.904
X14.744 Y29.913
G3 X14.438 Y29.584 Z-1.8 I0.011 J-0.317
X14.755 Y29.278 I0.317 J0.011
G1 X17.085
X17.145 Y29.283
X17.202 Y29.3
X17.255 Y29.327
X17.303 Y29.364
X17.343 Y29.411 F20
X17.374 Y29.464
X17.394 Y29.523
X17.403 Y29.584
G3 X17.096 Y29.913 Z-2 I-0.317 J0.011
G1 X13.343 F50
X12.842 Y29.931
X12.646 Y29.966
X12.508 Y30.003
Z3
X7.769 Y6.514
Z-1.365
Z-1.683 F20
X7.771 Y6.507 Z-1.753
X7.778 Y6.485 Z-1.82
X7.79 Y6.449 Z-1.88
X7.806 Y6.401 Z-1.931
X7.824 Y6.343 Z-1.969
X7.845 Y6.28 Z-1.992
X7.867 Y6.212 Z-2
G3 X8.286 Y5.549 I1.506 J0.488
G1 X8.328 Y5.512 F50
X8.481 Y5.353
X8.618 Y5.186
X8.642 Y5.144
X8.726 Y5.019
X8.838 Y4.92
X8.965 Y4.84
X9.101 Y4.776
X9.243 Y4.728
X9.389 Y4.694
X9.541 Y4.673
X9.701 Y4.664
X9.884 Y4.668
X10.076 Y4.688
X10.284 Y4.726
X10.514 Y4.788
X10.747 Y4.871
X11.01 Y4.99
X11.275 Y5.136
X11.326 Y5.17
X11.386 Y5.214
X11.442 Y5.265
X11.492 Y5.32
X11.519 Y5.353
X11.672 Y5.512
X11.839 Y5.659
X11.874 Y5.688
X12.085 Y5.863
X12.369 Y6.14
X12.663 Y6.475
X12.949 Y6.862
X13.261 Y7.362
X13.337 Y7.51
X13.635 Y8.117
X13.907 Y8.803
X14.017 Y9.155
X14.067 Y9.333
X14.091 Y9.422
G3 X13.854 Y9.803 Z-1.8 I-0.309 J0.072
X13.508 Y9.654 I-0.072 J-0.309
G1 X11.44 Y6.123
X11.42 Y6.083
X11.407 Y6.041
X11.397 Y5.98 F20
X11.4 Y5.918
X11.414 Y5.858
X11.44 Y5.802
G3 X11.874 Y5.688 Z-2 I0.274 J0.161
G1 X12.006 Y5.771 F50
X12.15 Y5.856
X12.34 Y5.943
X12.588 Y6.023
X12.675 Y6.04
X12.767 Y6.056
X12.913 Y6.089
X13.054 Y6.141
X13.192 Y6.205
X13.337 Y6.287
X13.42 Y6.343
X13.568 Y6.452
X13.739 Y6.522
X13.922 Y6.547
X14.105 Y6.526
X14.795 Y6.264
X14.858 Y6.22
X14.989 Y6.148
X15.132 Y6.103
X15.281 Y6.088
G3 X15.587 Y6.416 Z-1.8 I-0.011 J0.317
X15.266 Y6.722 I-0.317 J-0.011
G1 X12.718 Y6.688
G3 X12.468 Y6.56 I0.004 J-0.317
G1 X12.436 Y6.507 F20
X12.415 Y6.449
X12.405 Y6.388
X12.408 Y6.326
G3 X12.767 Y6.056 Z-2 I0.314 J0.044
G1 X12.842 Y6.069 F50
X13.343 Y6.087
X17.459 Y6.088
G3 X17.636 Y6.661 I-0.011 J0.317
G1 X17.579 Y6.703 Z-1.992
X17.525 Y6.742 Z-1.969
X17.476 Y6.778 Z-1.931
X17.436 Y6.808 Z-1.88
X17.405 Y6.83 Z-1.82
X17.386 Y6.844 Z-1.753
X17.38 Y6.849 Z-1.683
Z3
X8.447 Y6.222
Z-1.365
Z-1.683 F20
Y6.215 Z-1.753
Y6.191 Z-1.82
Y6.153 Z-1.88
Y6.103 Z-1.931
Y6.043 Z-1.969
Y5.976 Z-1.992
Y5.905 Z-2
G3 X8.642 Y5.144 I1.583 J0.001
G1 X8.717 Y5.018 F50
X8.802 Y4.851
X8.83 Y4.786
X8.87 Y4.683
X8.924 Y4.544
X9.009 Y4.42
X9.113 Y4.312
X9.231 Y4.219
X9.358 Y4.14
X9.493 Y4.074
X9.634 Y4.022
X9.784 Y3.979
X9.95 Y3.946
X10.138 Y3.924
X10.334 Y3.917
X10.386 Y3.919
X10.579 Y3.954
X10.756 Y4.038
X10.905 Y4.165
X11.015 Y4.327
X11.079 Y4.512
G3 X10.818 Y4.878 Z-1.8 I-0.313 J0.052
G1 X10.806 Y4.88
X10.572 Y4.909
X9.342 Y5.063
X9.216 Y5.079 F20
X9.156 Y5.081
X9.096 Y5.071
G3 X8.87 Y4.683 Z-2 I0.081 J-0.307
G1 X8.92 Y4.516 F50
X8.954 Y4.349
X8.974 Y4.181
X8.992 Y4.032
X9.049 Y3.893
X9.127 Y3.765
X9.221 Y3.649
X9.329 Y3.544
X9.446 Y3.451
X9.573 Y3.37
X9.706 Y3.302
X9.846 Y3.247
X9.99 Y3.206
X10.138 Y3.18
X10.287 Y3.167
X10.293
X10.514 Y3.206
X10.713 Y3.309
X10.873 Y3.467
X10.977 Y3.666
X11.017 Y3.887
X11.026 Y4.181
X11.046 Y4.349
X11.079 Y4.512
G3 X10.818 Y4.878 Z-1.8 I-0.313 J0.052
G1 X10.752 Y4.882
X10.686 Y4.872
X10.575 Y4.843
X9.532 Y4.57
X9.292 Y4.507 F20
X9.211 Y4.486 Z-1.833
G3 X8.974 Y4.181 Z-2 I0.08 J-0.307
G1 X8.984 Y3.846 F50
X8.988 Y3.679
Y3.587
X8.995 Y3.437
X9.031 Y3.291
X9.091 Y3.154
X9.169 Y3.026
X9.262 Y2.908
X9.369 Y2.803
X9.486 Y2.709
X9.613 Y2.629
X9.748 Y2.563
X9.888 Y2.512
X10.034 Y2.477
X10.183 Y2.456
X10.247 Y2.454
X10.482 Y2.484
X10.695 Y2.586
X10.865 Y2.751
X10.975 Y2.961
X11.012 Y3.194
Y3.679
X11.017 Y3.887
G3 X10.698 Y4.202 Z-1.8 I-0.317 J-0.002
G1 X10.631 Y4.195
X10.455 Y4.156
X9.557 Y3.957
X9.314 Y3.903 F20
X9.236 Y3.886 Z-1.832
G3 X8.988 Y3.587 Z-2 I0.069 J-0.31
G1 Y2.876 F50
X8.995 Y2.726
X9.03 Y2.58
X9.088 Y2.442
X9.165 Y2.313
X9.258 Y2.195
X9.364 Y2.089
X9.481 Y1.996
X9.608 Y1.916
X9.743 Y1.85
X9.884 Y1.798
X10.03 Y1.763
X10.178 Y1.743
X10.332 Y1.738
X10.546 Y1.788
X10.736 Y1.899
X10.885 Y2.061
X10.98 Y2.259
X11.012 Y2.477
Y3.194
G3 X10.684 Y3.501 Z-1.8 I-0.317 J-0.011
G1 X10.624 Y3.493
X10.441 Y3.451
X9.556 Y3.248
X9.314 Y3.192 F20
X9.234 Y3.174 Z-1.833
G3 X8.988 Y2.876 Z-2 I0.071 J-0.309
G1 Y2.172 F50
X8.995 Y2.022
X9.017 Y1.874
X9.064 Y1.731
X9.132 Y1.598
X9.217 Y1.474
X9.316 Y1.361
X9.426 Y1.26
X9.548 Y1.172
X9.679 Y1.098
X9.816 Y1.038
X9.959 Y0.993
X10.106 Y0.963
X10.255 Y0.948
X10.274
X10.502 Y0.985
X10.708 Y1.091
X10.871 Y1.254
X10.976 Y1.461
X11.012 Y1.689
Y2.477
G3 X10.684 Y2.783 Z-1.8 I-0.317 J-0.011
G1 X10.627 Y2.776
X10.441 Y2.735
X9.557 Y2.541
X9.314 Y2.488 F20
X9.237 Y2.471 Z-1.832
G3 X8.988 Y2.172 Z-2 I0.068 J-0.31
G1 Y0.498 F50
X8.987 Y0.33
X8.984 Y0.071
G3 X9.096 Y-0.163 Z-1.893 I0.317 J0.008
G1 X9.273 Y-0.313 Z-1.8
X9.462 Y-0.474
X11.324 Y-2.054
X11.372 Y-2.088
X11.425 Y-2.112
X11.482 Y-2.126
X11.54 Y-2.13
X11.601 Y-2.122 F20
X11.66 Y-2.102
X11.714 Y-2.071
X11.76 Y-2.03
G3 X11.747 Y-1.581 Z-2 I-0.231 J0.218
G1 X11.668 Y-1.511 F50
X11.505 Y-1.341
X11.376 Y-1.177
X11.337 Y-1.118
X11.278 Y-1.009
X11.192 Y-0.842
X11.128 Y-0.674
X11.079 Y-0.507
X11.043 Y-0.339
X11.022 Y-0.172
X11.016 Y-0.005
X11.013 Y0.33
X11.012 Y1
Y1.689
G3 X10.715 Y1.995 I-0.317 J-0.011
G1 X10.695 Y1.996 Z-1.999
X10.642 Y1.982 Z-1.991
X10.591 Y1.969 Z-1.973
X10.544 Y1.957 Z-1.946
X10.508 Y1.926 Z-1.906
X10.479 Y1.9 Z-1.858
X10.457 Y1.882 Z-1.803
X10.444 Y1.87 Z-1.744
X10.439 Y1.866 Z-1.683
Z3
X9.233 Y6.226
Z-1.265
Z-1.582 F20
X9.231 Y6.218 Z-1.653
X9.226 Y6.195 Z-1.72
X9.218 Y6.158 Z-1.78
X9.207 Y6.109 Z-1.831
X9.193 Y6.05 Z-1.869
X9.179 Y5.985 Z-1.892
X9.163 Y5.916 Z-1.9
G3 X8.964 Y4.181 I7.907 J-1.786
G1 X8.974 Y3.846 F50
X8.977 Y3.679
Y0.498
Y0.33
X8.974 Y0.071
Z3
X9.23 Y40.718
Z-1.265
Z-1.582 F20
X9.228 Y40.71 Z-1.653
X9.223 Y40.687 Z-1.72
X9.215 Y40.65 Z-1.78
X9.204 Y40.601 Z-1.831
X9.191 Y40.542 Z-1.869
X9.176 Y40.477 Z-1.892
X9.161 Y40.408 Z-1.9
G3 X8.968 Y38.672 I7.913 J-1.758
G1 X8.973 Y38.505 F50
X8.977 Y38.17
Y37.5
Y32.142
X8.975 Y31.975
X8.966 Y31.807
X8.942 Y31.64
X8.906 Y31.472
X8.856 Y31.305
X8.83 Y31.24
X8.785 Y31.138
X8.7 Y30.97
X8.663 Y30.908
X8.592 Y30.803
X8.457 Y30.635
X8.328 Y30.501
X8.161 Y30.354
X8.089 Y30.3
X7.994 Y30.239
X7.827 Y30.145
X7.66 Y30.067
X7.492 Y30.013
X7.325 Y29.97
X7.158 Y29.937
X6.991 Y29.922
G3 X6.867 Y29.335 I0.04 J-0.315
G1 X6.928 Y29.298 Z-1.892
X6.986 Y29.264 Z-1.869
X7.037 Y29.233 Z-1.831
X7.08 Y29.207 Z-1.78
X7.113 Y29.187 Z-1.72
X7.133 Y29.175 Z-1.653
X7.14 Y29.171 Z-1.582
Z3
X10.77 Y-2.218
Z-1.265
Z-1.582 F20
X10.772 Y-2.21 Z-1.653
X10.777 Y-2.187 Z-1.72
X10.785 Y-2.15 Z-1.78
X10.796 Y-2.101 Z-1.831
X10.809 Y-2.042 Z-1.869
X10.824 Y-1.977 Z-1.892
X10.839 Y-1.908 Z-1.9
G3 X11.032 Y-0.172 I-7.913 J1.758
G1 X11.027 Y-0.005 F50
X11.023 Y0.33
Y1
Y3.679
X11.026 Y3.846
X11.036 Y4.181
G3 X10.468 Y4.374 I-0.317 J-0.002
G1 X10.425 Y4.319 Z-1.892
X10.383 Y4.266 Z-1.869
X10.346 Y4.218 Z-1.831
X10.315 Y4.178 Z-1.78
X10.292 Y4.149 Z-1.72
X10.278 Y4.13 Z-1.653
X10.273 Y4.124 Z-1.582
Z3
X10.82 Y29.756
Z-1.265
Z-1.582 F20
X10.822 Y29.764 Z-1.653
X10.826 Y29.787 Z-1.72
X10.834 Y29.824 Z-1.78
X10.843 Y29.874 Z-1.831
X10.855 Y29.933 Z-1.869
X10.868 Y29.998 Z-1.892
X10.882 Y30.068 Z-1.9
G3 X11.034 Y31.807 I-7.952 J1.573
G1 X11.025 Y31.975 F50
X11.023 Y32.142
Y38.002
Y38.17
X11.026 Y38.429
G3 X10.731 Y38.738 I-0.317 J-0.008
G1 X10.709 Y38.739 Z-1.899
X10.708
X10.655 Y38.725 Z-1.89
X10.604 Y38.712 Z-1.871
X10.557 Y38.7 Z-1.843
X10.522 Y38.67 Z-1.804
X10.493 Y38.645 Z-1.756
X10.472 Y38.627 Z-1.702
X10.459 Y38.615 Z-1.644
X10.454 Y38.612 Z-1.583
Z3
X5.248 Y6.826
Z-1.165
Z-1.482 F20
X5.255 Y6.822 Z-1.553
X5.276 Y6.811 Z-1.62
X5.309 Y6.794 Z-1.68
X5.354 Y6.771 Z-1.731
X5.407 Y6.743 Z-1.769
X5.467 Y6.713 Z-1.792
X5.53 Y6.68 Z-1.8
G3 X7.158 Y6.05 I3.724 J7.2
G1 X7.325 Y6.011 F50
X7.492 Y5.961
X7.66 Y5.902
X7.827 Y5.822
X7.994 Y5.724
X8.053 Y5.688
X8.107 Y5.651
X8.161 Y5.606
X8.328 Y5.457
X8.428 Y5.353
X8.567 Y5.186
X8.663 Y5.031
X8.67 Y5.018
X8.757 Y4.851
X8.826 Y4.683
X8.877 Y4.516
X8.912 Y4.349
X8.932 Y4.181
X8.942 Y3.846
X8.946 Y3.679
Y0.498
X8.945 Y0.33
X8.943 Y0.071
Z3
X8.754 Y41.065
Z-1.165
Z-1.482 F20
Y41.057 Z-1.553
X8.753 Y41.034 Z-1.62
X8.752 Y40.996 Z-1.68
X8.751 Y40.946 Z-1.731
X8.749 Y40.886 Z-1.769
X8.747 Y40.819 Z-1.792
X8.744 Y40.748 Z-1.8
G3 X8.878 Y39.007 I8.102 J-0.256
G1 X8.915 Y38.839 F50
