(j23356BBA02)
(Machine)
(  vendor: Nikodem Bartnik)
(  model: Generic 3-axis Router)
(  description: This machine has XYZ axis on the Head)
(T1 D=3.175 CR=0 - ZMIN=-20 - flat end mill)
G90 G94
G17
G21
(-Attention- Property Safe Retracts is set to Clearance Height.)
(Ensure the clearance height will clear the part and or fixtures.)
(Raise the Z-axis to a safe height before starting the program.)
(When using Fusion 360 for Personal Use, the feedrate of)
(rapid moves is reduced to match the feedrate of cutting)
(moves, which can increase machining time. Unrestricted rapid)
(moves are available with a Fusion 360 Subscription.)

(2D Contour6 2)
T1
S5000 M3
G17 G90 G94
G54
G0 X1.317 Y-41.04
Z5
G1 Z1 F50
Z0.635 F16.7
Z-0.183
G19 G3 Y-40.722 Z-0.5 J0.318 K0 F20
G1 Y-40.405
G17 G3 X1 Y-40.088 I-0.317 J0
G1 X-21 F50
G3 X-21.317 Y-40.405 I0 J-0.317
G1 Y-40.722
G19 G2 Y-41.04 Z-0.183 J0 K0.317
G1 Z-0.683 F16.7
G3 Y-40.722 Z-1 J0.318 K0 F20
G1 Y-40.405
G17 G2 X-21 Y-40.088 I0.317 J0
G1 X1 F50
G2 X1.317 Y-40.405 I0 J-0.317
G1 Y-40.722
G19 G2 Y-41.04 Z-0.683 J0 K0.317
G1 Z-1.183 F16.7
G3 Y-40.722 Z-1.5 J0.318 K0 F20
G1 Y-40.405
G17 G3 X1 Y-40.088 I-0.317 J0
G1 X-21 F50
G3 X-21.317 Y-40.405 I0 J-0.317
G1 Y-40.722
G19 G2 Y-41.04 Z-1.183 J0 K0.317
G1 Z-1.683 F16.7
G3 Y-40.722 Z-2 J0.318 K0 F20
G1 Y-40.405
G17 G2 X-21 Y-40.088 I0.317 J0
G1 X1 F50
G2 X1.317 Y-40.405 I0 J-0.317
G1 Y-40.722
G19 G2 Y-41.04 Z-1.683 J0 K0.317
G1 Z-2.183 F16.7
G3 Y-40.722 Z-2.5 J0.318 K0 F20
G1 Y-40.405
G17 G3 X1 Y-40.088 I-0.317 J0
G1 X-21 F50
G3 X-21.317 Y-40.405 I0 J-0.317
G1 Y-40.722
G19 G2 Y-41.04 Z-2.183 J0 K0.318
G1 Z-2.683 F16.7
G3 Y-40.722 Z-3 J0.318 K0 F20
G1 Y-40.405
G17 G2 X-21 Y-40.088 I0.317 J0
G1 X1 F50
G2 X1.317 Y-40.405 I0 J-0.317
G1 Y-40.722
G19 G2 Y-41.04 Z-2.683 J0 K0.318
G1 Z-3.183 F16.7
G3 Y-40.722 Z-3.5 J0.318 K0 F20
G1 Y-40.405
G17 G3 X1 Y-40.088 I-0.317 J0
G1 X-21 F50
G3 X-21.317 Y-40.405 I0 J-0.317
G1 Y-40.722
G19 G2 Y-41.04 Z-3.183 J0 K0.318
G1 Z-3.683 F16.7
G3 Y-40.722 Z-4 J0.318 K0 F20
G1 Y-40.405
G17 G2 X-21 Y-40.088 I0.317 J0
G1 X1 F50
G2 X1.317 Y-40.405 I0 J-0.317
G1 Y-40.722
G19 G2 Y-41.04 Z-3.683 J0 K0.318
G1 Z-4.183 F16.7
G3 Y-40.722 Z-4.5 J0.318 K0 F20
G1 Y-40.405
G17 G3 X1 Y-40.088 I-0.317 J0
G1 X-21 F50
G3 X-21.317 Y-40.405 I0 J-0.317
G1 Y-40.722
G19 G2 Y-41.04 Z-4.183 J0 K0.318
G1 Z-4.683 F16.7
G3 Y-40.722 Z-5 J0.318 K0 F20
G1 Y-40.405
G17 G2 X-21 Y-40.088 I0.317 J0
G1 X1 F50
G2 X1.317 Y-40.405 I0 J-0.317
G1 Y-40.722
G19 G2 Y-41.04 Z-4.683 J0 K0.318
G1 Z-5.183 F16.7
G3 Y-40.722 Z-5.5 J0.318 K0 F20
G1 Y-40.405
G17 G3 X1 Y-40.088 I-0.317 J0
G1 X-21 F50
G3 X-21.317 Y-40.405 I0 J-0.317
G1 Y-40.722
G19 G2 Y-41.04 Z-5.183 J0 K0.318
G1 Z-5.683 F16.7
G3 Y-40.722 Z-6 J0.318 K0 F20
G1 Y-40.405
G17 G2 X-21 Y-40.088 I0.317 J0
G1 X1 F50
G2 X1.317 Y-40.405 I0 J-0.317
G1 Y-40.722
G19 G2 Y-41.04 Z-5.683 J0 K0.318
G1 Z-6.183 F16.7
G3 Y-40.722 Z-6.5 J0.318 K0 F20
G1 Y-40.405
G17 G3 X1 Y-40.088 I-0.317 J0
G1 X-21 F50
G3 X-21.317 Y-40.405 I0 J-0.317
G1 Y-40.722
G19 G2 Y-41.04 Z-6.183 J0 K0.318
G1 Z-6.683 F16.7
G3 Y-40.722 Z-7 J0.318 K0 F20
G1 Y-40.405
G17 G2 X-21 Y-40.088 I0.317 J0
G1 X1 F50
G2 X1.317 Y-40.405 I0 J-0.317
G1 Y-40.722
G19 G2 Y-41.04 Z-6.683 J0 K0.318
G1 Z-7.183 F16.7
G3 Y-40.722 Z-7.5 J0.318 K0 F20
G1 Y-40.405
G17 G3 X1 Y-40.088 I-0.317 J0
G1 X-21 F50
G3 X-21.317 Y-40.405 I0 J-0.317
G1 Y-40.722
G19 G2 Y-41.04 Z-7.183 J0 K0.318
G1 Z-7.683 F16.7
G3 Y-40.722 Z-8 J0.318 K0 F20
G1 Y-40.405
G17 G2 X-21 Y-40.088 I0.317 J0
G1 X1 F50
G2 X1.317 Y-40.405 I0 J-0.317
G1 Y-40.722
G19 G2 Y-41.04 Z-7.683 J0 K0.318
G1 Z-8.183 F16.7
G3 Y-40.722 Z-8.5 J0.318 K0 F20
G1 Y-40.405
G17 G3 X1 Y-40.088 I-0.317 J0
G1 X-21 F50
G3 X-21.317 Y-40.405 I0 J-0.317
G1 Y-40.722
G19 G2 Y-41.04 Z-8.183 J0 K0.318
G1 Z-8.683 F16.7
G3 Y-40.722 Z-9 J0.318 K0 F20
G1 Y-40.405
G17 G2 X-21 Y-40.088 I0.317 J0
G1 X1 F50
G2 X1.317 Y-40.405 I0 J-0.317
G1 Y-40.722
G19 G2 Y-41.04 Z-8.683 J0 K0.318
G1 Z-9.183 F16.7
G3 Y-40.722 Z-9.5 J0.318 K0 F20
G1 Y-40.405
G17 G3 X1 Y-40.088 I-0.317 J0
G1 X-21 F50
G3 X-21.317 Y-40.405 I0 J-0.317
G1 Y-40.722
G19 G2 Y-41.04 Z-9.183 J0 K0.318
G1 Z-9.683 F16.7
G3 Y-40.722 Z-10 J0.318 K0 F20
G1 Y-40.405
G17 G2 X-21 Y-40.088 I0.317 J0
G1 X1 F50
G2 X1.317 Y-40.405 I0 J-0.317
G1 Y-40.722
G19 G2 Y-41.04 Z-9.683 J0 K0.318
G1 Z-10.183 F16.7
G3 Y-40.722 Z-10.5 J0.318 K0 F20
G1 Y-40.405
G17 G3 X1 Y-40.088 I-0.317 J0
G1 X-21 F50
G3 X-21.317 Y-40.405 I0 J-0.317
G1 Y-40.722
G19 G2 Y-41.04 Z-10.183 J0 K0.318
G1 Z-10.683 F16.7
G3 Y-40.722 Z-11 J0.318 K0 F20
G1 Y-40.405
G17 G2 X-21 Y-40.088 I0.317 J0
G1 X1 F50
G2 X1.317 Y-40.405 I0 J-0.317
G1 Y-40.722
G19 G2 Y-41.04 Z-10.683 J0 K0.318
G1 Z-11.183 F16.7
G3 Y-40.722 Z-11.5 J0.318 K0 F20
G1 Y-40.405
G17 G3 X1 Y-40.088 I-0.317 J0
G1 X-21 F50
G3 X-21.317 Y-40.405 I0 J-0.317
G1 Y-40.722
G19 G2 Y-41.04 Z-11.183 J0 K0.318
G1 Z-11.683 F16.7
G3 Y-40.722 Z-12 J0.318 K0 F20
G1 Y-40.405
G17 G2 X-21 Y-40.088 I0.317 J0
G1 X1 F50
G2 X1.317 Y-40.405 I0 J-0.317
G1 Y-40.722
G19 G2 Y-41.04 Z-11.683 J0 K0.318
G1 Z-12.183 F16.7
G3 Y-40.722 Z-12.5 J0.318 K0 F20
G1 Y-40.405
G17 G3 X1 Y-40.088 I-0.317 J0
G1 X-21 F50
G3 X-21.317 Y-40.405 I0 J-0.317
G1 Y-40.722
G19 G2 Y-41.04 Z-12.183 J0 K0.318
G1 Z-12.683 F16.7
G3 Y-40.722 Z-13 J0.318 K0 F20
G1 Y-40.405
G17 G2 X-21 Y-40.088 I0.317 J0
G1 X1 F50
G2 X1.317 Y-40.405 I0 J-0.317
G1 Y-40.722
G19 G2 Y-41.04 Z-12.683 J0 K0.318
G1 Z-13.183 F16.7
G3 Y-40.722 Z-13.5 J0.318 K0 F20
G1 Y-40.405
G17 G3 X1 Y-40.088 I-0.317 J0
G1 X-21 F50
G3 X-21.317 Y-40.405 I0 J-0.317
G1 Y-40.722
G19 G2 Y-41.04 Z-13.183 J0 K0.318
G1 Z-13.683 F16.7
G3 Y-40.722 Z-14 J0.318 K0 F20
G1 Y-40.405
G17 G2 X-21 Y-40.088 I0.317 J0
G1 X1 F50
G2 X1.317 Y-40.405 I0 J-0.317
G1 Y-40.722
G19 G2 Y-41.04 Z-13.683 J0 K0.318
G1 Z-14.183 F16.7
G3 Y-40.722 Z-14.5 J0.318 K0 F20
G1 Y-40.405
G17 G3 X1 Y-40.088 I-0.317 J0
G1 X-21 F50
G3 X-21.317 Y-40.405 I0 J-0.317
G1 Y-40.722
G19 G2 Y-41.04 Z-14.183 J0 K0.318
G1 Z-14.683 F16.7
G3 Y-40.722 Z-15 J0.318 K0 F20
G1 Y-40.405
G17 G2 X-21 Y-40.088 I0.317 J0
G1 X1 F50
G2 X1.317 Y-40.405 I0 J-0.317
G1 Y-40.722
G19 G2 Y-41.04 Z-14.683 J0 K0.318
G1 Z-15.183 F16.7
G3 Y-40.722 Z-15.5 J0.318 K0 F20
G1 Y-40.405
G17 G3 X1 Y-40.088 I-0.317 J0
G1 X-21 F50
G3 X-21.317 Y-40.405 I0 J-0.317
G1 Y-40.722
G19 G2 Y-41.04 Z-15.183 J0 K0.318
G1 Z-15.683 F16.7
G3 Y-40.722 Z-16 J0.318 K0 F20
G1 Y-40.405
G17 G2 X-21 Y-40.088 I0.317 J0
G1 X1 F50
G2 X1.317 Y-40.405 I0 J-0.317
G1 Y-40.722
G19 G2 Y-41.04 Z-15.683 J0 K0.318
G1 Z-16.183 F16.7
G3 Y-40.722 Z-16.5 J0.318 K0 F20
G1 Y-40.405
G17 G3 X1 Y-40.088 I-0.317 J0
G1 X-21 F50
G3 X-21.317 Y-40.405 I0 J-0.317
G1 Y-40.722
G19 G2 Y-41.04 Z-16.183 J0 K0.317
G1 Z-16.683 F16.7
G3 Y-40.722 Z-17 J0.318 K0 F20
G1 Y-40.405
G17 G2 X-21 Y-40.088 I0.317 J0
G1 X1 F50
G2 X1.317 Y-40.405 I0 J-0.317
G1 Y-40.722
G19 G2 Y-41.04 Z-16.683 J0 K0.317
G1 Z-17.183 F16.7
G3 Y-40.722 Z-17.5 J0.318 K0 F20
G1 Y-40.405
G17 G3 X1 Y-40.088 I-0.317 J0
G1 X-21 F50
G3 X-21.317 Y-40.405 I0 J-0.317
G1 Y-40.722
G19 G2 Y-41.04 Z-17.183 J0 K0.317
G1 Z-17.683 F16.7
G3 Y-40.722 Z-18 J0.318 K0 F20
G1 Y-40.405
G17 G2 X-21 Y-40.088 I0.317 J0
G1 X1 F50
G2 X1.317 Y-40.405 I0 J-0.317
G1 Y-40.722
G19 G2 Y-41.04 Z-17.683 J0 K0.317
G1 Z-18.183 F16.7
G3 Y-40.722 Z-18.5 J0.318 K0 F20
G1 Y-40.405
G17 G3 X1 Y-40.088 I-0.317 J0
G1 X-21 F50
G3 X-21.317 Y-40.405 I0 J-0.317
G1 Y-40.722
G19 G2 Y-41.04 Z-18.183 J0 K0.317
G1 Z-18.683 F16.7
G3 Y-40.722 Z-19 J0.318 K0 F20
G1 Y-40.405
G17 G2 X-21 Y-40.088 I0.317 J0
G1 X1 F50
G2 X1.317 Y-40.405 I0 J-0.317
G1 Y-40.722
G19 G2 Y-41.04 Z-18.683 J0 K0.317
G1 Z-19.183 F16.7
G3 Y-40.722 Z-19.5 J0.318 K0 F20
G1 Y-40.405
G17 G3 X1 Y-40.088 I-0.317 J0
G1 X-3.596 F50
Z-19.206
X-9.946
Z-19.5 F16.7
X-10.921 F50
Z-19.206
X-17.271
Z-19.5 F16.7
X-21 F50
G3 X-21.317 Y-40.405 I0 J-0.317
G1 Y-40.722
G19 G2 Y-41.04 Z-19.183 J0 K0.317
G1 Z-19.683 F16.7
G3 Y-40.722 Z-20 J0.318 K0 F20
G1 Y-40.405
G17 G2 X-21 Y-40.088 I0.317 J0
G1 X-17.271 F50
Z-19.206
X-10.921
Z-20 F16.7
X-9.946 F50
Z-19.206
X-3.596
Z-20 F16.7
X1 F50
G2 X1.317 Y-40.405 I0 J-0.317
G1 Y-40.722
G19 G2 Y-41.04 Z-19.683 J0 K0.317
G1 Z5
G17

M5
M30
